!!!COM: Beethoven, Ludwig van
!!!CDT: 1770///-1827///
!!!ODT: 1823///-1824///
!!!OTL: String Quartet No. 12 in E-flat Major, Op. 127
!!!OPS: Op. 127
!!!OMV: Mvmt. 2
!!!OMD: Adagio, ma non troppo e molto cantabile
!!!PDT: 1826
!!!PPP: Mainz
!!!PPR: B. Schott S&ouml;hne
!!!ODE: Dem F&uuml;rsten Nicolaus von Galitzin gewidmet
!!!MPD: 1825/03/06
**kern	**dynam	**kern	**dynam	**kern	**dynam	**kern	**dynam
*staff4	*staff4	*staff3	*staff3	*staff2	*staff2	*staff1	*staff1
*Icello	*Icello	*Iviola	*Iviola	*Ivioln	*Ivioln	*Ivioln	*Ivioln
*clefF4	*clefF4	*clefC3	*clefC3	*clefG2	*clefG2	*clefG2	*clefG2
*k[b-e-a-d-]	*k[b-e-a-d-]	*k[b-e-a-d-]	*k[b-e-a-d-]	*k[b-e-a-d-]	*k[b-e-a-d-]	*k[b-e-a-d-]	*k[b-e-a-d-]
*A-:	*A-:	*A-:	*A-:	*A-:	*A-:	*A-:	*A-:
*M12/8	*M12/8	*M12/8	*M12/8	*M12/8	*M12/8	*M12/8	*M12/8
*MM48	*MM48	*MM48	*MM48	*MM48	*MM48	*MM48	*MM48
=283-	=283-	=283-	=283-	=283-	=283-	=283-	=283-
[8EE-	pp	8r	.	8r	.	8r	.
4EE-]	.	4r	.	4r	.	4r	.
[8EE-	.	8r	.	8r	.	8r	.
=284	=284	=284	=284	=284	=284	=284	=284
1.EE-_	.	4r	.	2.r	.	1.r	.
.	.	[8D-	.	.	.	.	.
.	.	4D-]	.	.	.	.	.
.	.	[8D-	.	.	.	.	.
.	.	2.D-_	.	4r	.	.	.
.	.	.	.	[8B-	.	.	.
.	.	.	.	4B-]	.	.	.
.	.	.	.	[8B-	.	.	.
=285	=285	=285	=285	=285	=285	=285	=285
2.EE-_	pp	2.D-_	pp	2.B-_	.	4r	.
.	.	.	.	.	.	[8d-	pp
.	.	.	.	.	.	4d-]	.
.	.	.	.	.	.	[8d-	.
4EE-]	.	4D-]	.	4B-]	.	4d-]	.
[8EE-	.	[8D-	.	[8B-	.	(8e-	.
4EE-]	.	4D-]	.	4B-]	.	4f	.
8EE-	.	8D-	.	8B-	.	8g)	.
=286	=286	=286	=286	=286	=286	=286	=286
(4.EE-	p	[2.C	p	(4.A-	.	[4.a-	p
[4.AA-)	.	.	.	4.c)	.	(4a-]	.
.	.	.	.	.	.	8b-	.
2.AA-]	.	2.C]	.	2.c 2.e-	.	4cc	.
.	.	.	.	.	.	8dd-	.
.	.	.	.	.	.	4ee-	.
.	.	.	.	.	.	8ff)	.
=287	=287	=287	=287	=287	=287	=287	=287
(2.GG	.	(4.D-	.	2.B- 2.e-	.	(4ff	.
.	.	.	.	.	.	8ee-	.
.	.	2.E-)	.	.	.	4dd-	.
.	.	.	.	.	.	8b-)	.
2.BB-)	.	.	.	2.d- 2.e-	.	(4g	.
.	.	.	.	.	.	[8ee-)	.
.	.	4.E-	.	.	.	(8ee-]	.
.	.	.	.	.	.	8dd-	.
.	.	.	.	.	.	8b-)	.
=288	=288	=288	=288	=288	=288	=288	=288
(2.C	.	(2.E-	.	4.c 4.e-	.	(4a-	.
.	.	.	.	.	.	8aa-	.
.	.	.	.	(2.A-	.	4gg	.
.	.	.	.	.	.	8ff)	.
2.E-)	.	4.C	.	.	.	(4ff	.
.	.	.	.	.	.	8ee-	.
.	.	4.A-)	.	4.c)	.	4dd-	.
.	.	.	.	.	.	8cc)	.
=289	=289	=289	=289	=289	=289	=289	=289
[2.E-	.	(2.A-	.	4.c	.	[4.ee-	.
.	.	.	.	[4.e-	.	(4ee-]	.
.	.	.	.	.	.	8cc)	.
4E-]	.	4G)	.	(4e-]	.	(4b-	.
(8E-	.	[8E-	.	8G	.	[8ee-	.
4F	.	4E-]	.	4A-	.	4ee-]	.
8G)	.	8E-	.	8B-)	.	8dd-)	.
*clefC4	*clefC4	*	*	*	*	*	*
=290	=290	=290	=290	=290	=290	=290	=290
[4.A-	.	(4.E-	.	(4.c	.	(4cc	.
.	.	.	.	.	.	8bb-	.
(4A-]	.	4F	.	4a-	.	4aa-	.
8B-	.	8G	.	8e-)	.	8gg	.
4c	.	2.A-)	.	2.c 2.e-	.	4ff	.
8d-	.	.	.	.	.	8ee-	.
4e-	.	.	.	.	.	4dd-	.
8f)	.	.	.	.	.	8cc)	.
=291	=291	=291	=291	=291	=291	=291	=291
(4f	.	(2.G	.	(2.B- 2.e-	.	(4dd-	.
8e-	.	.	.	.	.	8ccc	.
4d-	.	.	.	.	.	4bb-	.
8B-	.	.	.	.	.	8gg	.
4G	.	4.B-	.	4.d-) 4.e-	.	4ee-	.
[8e-	.	.	.	.	.	8gg	.
8e-]	.	4.G)	.	(8d-	.	4bb-	.
8d-	.	.	.	8B-	.	.	.
8B-)	.	.	.	8e-)	.	8ddd-)	.
=292	=292	=292	=292	=292	=292	=292	=292
(4A-	.	2.A-	.	(4c	.	(4ccc	.
8a-	.	.	.	8cc	.	8ee-	.
4g	.	.	.	4b-	.	4ee	.
8f)	.	.	.	8a-)	.	8ff)	.
(4f	.	4.B-	.	(4a-	.	(4ff	.
8e-)	.	.	.	8g)	.	8gg)	.
(4e-	.	4.B-	.	(4g	.	(4gg	.
8d)	.	.	.	8f)	.	8aa-)	.
=293	=293	=293	=293	=293	=293	=293	=293
4.d	.	2.E- 2.B-	.	(4.f	.	(4.aa-	.
8d	.	.	.	4a-	.	4ff	.
8f	.	.	.	.	.	.	.
8e-)	.	.	.	8g)	.	8gg)	.
4e-	.	4E- 4B-	.	4G 4g	.	4gg	.
*clefF4	*clefF4	*	*	*	*	*	*
(8BB-	pp	(8E-	.	(8d-	pp	(8e-	pp
4BB-	.	4E-	.	4d-	.	4g	.
8AA-)	.	8E-)	.	8d-)	.	8a-)	.
=294	=294	=294	=294	=294	=294	=294	=294
(2.GG	.	(4E-	.	(4d-	.	[4.b-	.
.	.	8E-	.	8d-	.	.	.
.	.	4E-	.	4d-	.	(4b-]	.
.	.	8E-	.	8d-	.	8a-)	.
2.BB-)	.	4E-	.	4d-	.	(4a-	.
.	.	8E-	.	8d-	.	8g	.
.	.	4E-	.	4d-	.	4a-	.
.	.	8E-)	.	8d-)	.	8b-)	.
=295	=295	=295	=295	=295	=295	=295	=295
(2.AA-	.	(4E-	.	(4c	.	[4.cc	.
.	.	8E-	.	8c	.	.	.
.	.	4E-	.	4c	.	(4cc]	.
.	.	8E-	.	8d-	.	8b-)	.
[2.C)	.	4E-	.	4e-	.	(4b-	.
.	.	8E-	.	8e-	.	8a-	.
.	.	4E-	.	4e-	.	4b-	.
.	.	8E-)	.	8e-)	.	8cc)	.
=296	=296	=296	=296	=296	=296	=296	=296
(4C]	.	(4E-	.	(4e-	.	[4.dd-	.
8BB-	.	8E-	.	8d-	.	.	.
4AA-	.	4E-	.	4c	.	(4dd-]	.
8GG	.	8E-	.	8B-	.	8ee-	.
4FF	.	4E-	.	4A-	.	4ff	.
8EE-	.	8E-	.	8B-	.	8gg	.
4DD	.	4E-	.	4B- 4f	.	4aa-	.
8DD-)	.	8E-)	.	8B- 8g	.	8bb-)	.
=297	=297	=297	=297	=297	=297	=297	=297
(4CC	.	(4E-	.	4c) 4a-	.	(4aa-	.
8DD-	.	8F	.	(8c	.	8ee-	.
4EE-)	.	4G	.	4B-	.	4dd-	.
(8EE-	.	8E-) 8d-	.	8G	.	8b-	.
4AA-)	.	4E- 4c	.	4A-)	.	4a-)	.
*clefC4	*clefC4	*	*	*	*	*	*
(8E-	.	(8E- 8B-	.	(8G	.	8r	.
4G	.	4E- 4B-	.	4e-	.	4.r	.
8A-)	.	8E-) 8c	.	8f)	.	.	.
=298	=298	=298	=298	=298	=298	=298	=298
[4.B-	.	(4E- 4d-	.	[4.g	.	4r	.
.	.	8E- 8d-	.	.	.	(8ee-	.
4B-]	.	4E- 4d-	.	(4g]	.	4gg	.
8A-	.	8E- 8d-	.	8f)	.	8aa-	.
4A-	.	4E- 4d-	.	(4f	.	4bb-)	.
8G	.	8E- 8d-	.	8e-	.	8r	.
4A-	.	4E- 4d-	.	4f	.	4r	.
8B-	.	8E-) 8d-	.	8g)	.	8r	.
=299	=299	=299	=299	=299	=299	=299	=299
[4.c	.	4E- 4c	.	[4.a-	.	4r	.
.	.	8E-	.	.	.	(8ee-	.
(4c]	.	4e-	.	(4a-]	.	4aa-	.
8B-)	.	8E- 8d-	.	8g)	.	8bb-	.
(4B-	.	4E- 4c	.	(4e-	.	4.ccc)	.
8A-	.	8E- 8c	.	[8a-)	.	.	.
4G-	.	(4E-	.	(8a-]	.	(4b-	.
.	.	.	.	8B-	.	.	.
8E-)	.	8G-)	.	8A-)	.	8cc)	.
*clefF4	*clefF4	*	*	*	*	*	*
=300	=300	=300	=300	=300	=300	=300	=300
(4D-	.	(4F	.	(4A-	.	[4.dd-	.
8E-	.	8G-	.	[8a-)	.	.	.
4D-	.	4F	.	4a-]	.	(4dd-]	.
8C	.	8E-	.	8a-	.	8ee-	.
4BB-	.	4D-	.	(4a-	.	4ff	.
8FF-	.	8d-	.	8b-	.	8gg	.
4EE-	.	4c	.	4cc	.	4aa-	.
8DD)	.	8F) 8A-	.	8b-)	.	8bb-)	.
=301	=301	=301	=301	=301	=301	=301	=301
[4.EE-	.	(4A-	.	(4cc	.	4aa-	.
.	.	8A	.	8c	.	(8ee-	.
4EE-]	.	4B-	.	4d-)	.	4dd-	.
*clefC4	*clefC4	*	*	*	*	*	*
(8g	p	8E-)	.	8d-	.	8b-)	.
4a-	.	[4.E-	p	(4.A-	.	(4a-	p
8e-	.	.	.	.	.	8a	.
4d-)	.	4E-]	.	4G	.	4b-)	.
*clefF4	*clefF4	*	*	*	*	*	*
(8DD-	.	[8E-	.	8g)	.	(8b-	.
=302	=302	=302	=302	=302	=302	=302	=302
4CC)	.	4E-]	.	&(4A-&) 4g-	.	4ee-)	.
(8EE-	.	(8G-	.	(8c	.	(8a-	.
4DD-)	.	4F)	.	4A-) 4f	.	4dd-)	.
(8FF-	.	(8A-	.	(8d-	.	(8a-	.
4DD	.	4F)	.	4A-) 4a-	.	4cc)	.
8EE-)	.	(8A-	.	(8c	.	8a-	.
&(4E-&)	.	4c	.	4A-	.	4e-	.
8d-	.	8E-) 8B-	.	8G)	.	&(8g&)	.
=303	=303	=303	=303	=303	=303	=303	=303
4c	p	4E- 4A-	p	4e-	p	4a-	p
8r	.	8r	.	8r	.	8r	.
4EE- 4E-	pp	4E- 4d-	pp	4G 4e-	.	4b-	pp
8r	.	8r	.	8r	.	8r	.
4AA-	.	4E- 4c	.	4A- 4e-	.	4a-	.
=	=	=	=	=	=	=	=
8r	.	[8G	p	8r	.	[8ee-	p
(4E-	p	(4G]	.	4r	.	(4ee-]	.
16F	.	16A-	.	[8e-	p	16dd	.
16G)	.	16B-)	.	.	.	16dd-)	.
=304	=304	=304	=304	=304	=304	=304	=304
(4G	.	(4B-	.	(4e-]	.	(4dd-	.
[8A-)	.	[8c)	.	16f	.	8cc)	.
.	.	.	.	16g)	.	.	.
(4A-]	.	(4c]	.	8.g	.	4r	.
.	.	.	.	[16a-	.	.	.
16B-	.	16d-	.	8a-_	.	8r	.
16c)	.	16e-)	.	.	.	.	.
(4c	.	(4e-	.	8a-]	.	2.r	.
.	.	.	.	(16g	.	.	.
.	.	.	.	16a-	.	.	.
16d-	.	16d-	.	16b-	.	.	.
16e-)	.	16c)	.	16cc)	.	.	.
(8e-	.	4.F 4.c	.	4a 4cc	.	.	.
8.g-	.	.	.	.	.	.	.
.	.	.	.	16a	.	.	.
16f)	.	.	.	16cc	.	.	.
=305	=305	=305	=305	=305	=305	=305	=305
(8f	.	(8A	.	(8c	.	2.r	.
8e-	.	8F	.	8a	.	.	.
[8d-)	.	[8B-)	.	16b-	.	.	.
.	.	.	.	16bb-)	.	.	.
(8d-]	.	(8B-]	.	(4bb-	.	.	.
8B-	.	8d	.	.	.	.	.
16c	.	16e-	.	16aa	.	.	.
16d)	.	16f)	.	16aa-)	.	.	.
(4d	.	(8f	.	4aa-	.	4r	.
.	.	4b-)	.	.	.	.	.
8e-)	.	.	.	[8gg	.	(16gg	.
.	.	.	.	.	.	16eee-)	.
(8g	.	(8e-	.	16gg]	.	(4eee-	.
.	.	.	.	[16b-	.	.	.
16e-	.	16g	.	4b-]	.	.	.
16f	.	16a-	.	.	.	.	.
8g)	.	8b-)	.	.	.	16ddd	.
.	.	.	.	.	.	16ddd-	.
=306	=306	=306	=306	=306	=306	=306	=306
(8e	.	(8g	.	(16b	.	8ccc)	.
.	.	.	.	[16cc)	.	.	.
8f	.	8a-	.	4cc]	.	(16aa-	.
.	.	.	.	.	.	16gg	.
16g	.	16b-	.	.	.	8ff)	.
16a-)	.	16cc)	.	.	.	.	.
8F	.	8A-	.	(16ee	.	8r	.
.	.	.	.	16ff)	.	.	.
8r	.	8r	.	(16ff	.	(16aa-	.
.	.	.	.	16ee-	.	16gg	.
(16G	.	(16B-	.	8dd-)	.	8ff)	.
16A-	.	16c	.	.	.	.	.
8G)	.	8B-)	.	(16cc	.	8r	.
.	.	.	.	16dd-)	.	.	.
8r	.	8r	.	(16dd-	.	(16ff	.
.	.	.	.	16cc	.	16ee-	.
(16A-	.	(16c	.	8b-)	.	8dd-)	.
16B-	.	16d-	.	.	.	.	.
8A-)	.	8c)	.	(16b	.	8r	.
.	.	.	.	16cc)	.	.	.
8r	.	8r	.	(16cc	.	(16ee-	.
.	.	.	.	16b-	.	16dd-	.
(16B-	.	(16d-	.	8a-)	.	8cc)	.
16c)	.	16e-)	.	.	.	.	.
=307	=307	=307	=307	=307	=307	=307	=307
(8e-	.	(4e-	.	(4a-	.	(4cc	.
8c	.	.	.	.	.	.	.
8A-	.	8a-	.	8cc	.	8ee-	.
8E-	.	8cc	.	8ee-	.	8aa-	.
8C	.	8ee-)	.	8aa-	.	8ccc	.
8AA-)	.	8ee-	.	8ccc)	.	8eee-)	.
(8AA-	.	8ee-	.	(8.bb-	.	(8eee-	.
8GG	.	(8E-	.	.	.	8bb-)	.
.	.	.	.	16b-	.	.	.
16FF	.	16F	.	16a-	.	8bb-	.
16EE-)	.	16G)	.	16g)	.	.	.
(4EE-	.	(4G	.	(8g	.	8ddd-	.
.	.	.	.	8dd-)	.	8ee-)	.
16FF	.	16A-	.	8dd-	.	8e-	.
16GG)	.	16B-)	.	.	.	.	.
=308	=308	=308	=308	=308	=308	=308	=308
(4E-	.	(8B-	.	(8d-	.	4.e-	.
.	.	8A-	.	8c	.	.	.
16F	.	8D-)	.	8B-)	.	.	.
16G)	.	.	.	.	.	.	.
(4G	.	(4D-	.	(4B-	.	(8e-	.
.	.	.	.	.	.	8ee-)	.
8A-)	.	16C)	.	16A-)	.	[8ee-	.
.	.	16a-	.	16cc	.	.	.
4r	.	(4cc	.	(8a-	.	(4ee-]	.
.	.	.	.	8ee-	.	.	.
8r	.	16cc-	.	16dd	.	16ff	.
.	.	16b-)	.	16dd-)	.	16gg)	.
4r	.	(4b-	.	(4dd-	.	(4gg	.
8FF	.	8a-)	.	8cc)	.	8aa-)	.
=309	=309	=309	=309	=309	=309	=309	=309
(4FF	.	(4c	.	(4a-	.	4r	.
16GG	.	16A-	.	16f	.	8r	.
16AA-)	.	16G)	.	16e-)	.	.	.
(8AA	.	(8G-	.	4e-	.	4r	.
4BB-)	.	4F)	.	.	.	.	.
.	.	.	.	(8d-	.	[8dd-	.
4r	.	(8F	.	4b-	.	(4dd-]	.
.	.	8B-	.	.	.	.	.
8r	.	16c	.	8B-)	.	16ee-	.
.	.	16d-)	.	.	.	16ff)	.
*^	*	*^	*	*	*	*	*
(4BB-	4.CC	.	(4d-	4.C	.	8.g 8.b-	.	(8.ff	.
.	.	.	.	.	.	(16g	.	16ee	.
16AA-	.	.	16c	.	.	16f	.	16ff	.
16GG)	.	.	16B-)	.	.	16e)	.	16gg)	.
*v	*v	*	*	*	*	*	*	*	*
*	*	*v	*v	*	*	*	*	*
=310	=310	=310	=310	=310	=310	=310	=310
(4EE	.	(4D- 4d-	.	(4G	.	(4bb-	.
16FF)	.	&(16C&)) 16c	.	16A-)	.	16aa-)	.
[16FF	.	[16cc	.	[16a-	.	[16aa-	.
(4FF]	.	(4cc]	.	(4a-]	.	(4aa-]	.
16AA-)	.	16c)	.	16cc)	.	16ff)	.
[16AA-	.	[16c	.	[16cc	.	[16ff	.
(4AA-]	.	(4c]	.	(4cc]	.	(4ff]	.
16AA)	.	16g-)	.	16cc)	.	16ee-)	.
[16AA	.	[16g-	.	[16cc	.	[16ee-	.
(4AA]	.	(4g-]	.	(4cc]	.	(4ee-]	.
16BB-)	.	16f)	.	16a-)	.	16dd)	.
[16EE- [16C-	.	[16f	.	[16a-	.	[16dd	.
=311	=311	=311	=311	=311	=311	=311	=311
2.EE-] 2.C-]	.	(8f]	.	(8a-]	.	8dd]	.
.	.	[4A-)	.	[4f)	.	8ddd	.
.	.	.	.	.	.	8fff	.
.	.	(4A-]	.	(4f]	.	8aaa-	.
.	.	.	.	.	.	8fff	.
.	.	8F)	.	[8A-)	.	8ddd	.
4EE- 4BB-	.	(8D	.	(8A-]	.	(8fff	.
.	.	8E-)	.	8G)	.	8eee-	.
8EE-	.	[8E-	.	[8G	.	8ddd-	.
(4EE-	.	(8E-]	.	8G]	.	8bb-	.
.	.	8G)	.	(8g	.	8gg	.
16GG	.	(16B-	.	16b-	.	8ff)	.
16AA-)	.	16c)	.	16cc)	.	.	.
=312	=312	=312	=312	=312	=312	=312	=312
(4AA	.	(4c	.	(4cc	.	(8ff	.
.	.	.	.	.	.	8ee-)	.
[8BB-)	.	8d-)	.	8dd-)	.	8ee-	.
4BB-]	.	4E-	.	4G	.	4dd-	.
(16AA-	.	(16F	.	(16A-	.	(16cc	.
16GG)	.	16G)	.	16B-)	.	16b-)	.
(4FF	.	(8A-	.	(8c	.	(4a-	.
.	.	8B-)	.	8d-)	.	.	.
8EE-)	.	8B-	.	8d-	.	16g	.
.	.	.	.	.	.	16ff)	.
(8.EE-	.	(8B-	.	(8d-	.	(8ff	.
.	.	8G	.	8B-	.	8ee-	.
16EE-	.	.	.	.	.	.	.
16AA-	.	8E-)	.	16c	.	16cc	.
16BB-)	.	.	.	16d-)	.	16b-)	.
=313	=313	=313	=313	=313	=313	=313	=313
(4BB	.	4E-	.	(8d	.	4g	.
.	.	.	.	8e-)	.	.	.
8C)	p	8E-	p	[8e-	.	(16a-	p
.	.	.	.	.	.	16ee-)	.
4r	.	(8c	.	(8e-]	.	(8ee-	.
.	.	8A-	.	8c	.	16ff	.
.	.	.	.	.	.	16ee-	.
8r	.	16B-	.	16d-	.	16dd-	.
.	.	16c)	.	16e-)	.	16cc	.
4r	.	(8d-	.	(8f-	.	8b-	.
.	.	16f-	.	16d-	.	8b--	.
.	.	16d-	.	16f-	.	.	.
[8A-	.	[8c)	.	16e-)	.	16a-	.
.	.	.	.	[16ee-	.	16gg-)	.
(4A-]	.	8c]	.	(8ee-]	.	(8.gg-	.
.	.	8g-	.	8a-	.	.	.
.	.	.	.	.	.	16bb-	.
16B-	.	16f	.	16dd-)	.	16aa-	.
16c)	.	&(16e-&)	.	16ee-	.	16gg-)	.
=314	=314	=314	=314	=314	=314	=314	=314
(8c	.	(8e-	.	(8b--	.	(8gg-	.
8.d-	.	8.f	.	8.a-)	.	8.ff	.
16e-)	.	16g-)	.	16a- 16cc	.	16ee-)	.
*clefC4	*clefC4	*	*	*	*	*	*
(8e-	.	(8g-	.	(8a- 8cc	.	(8eee-	.
8.f	.	8.a-	.	8.cc-	.	8.ddd	.
16g)	.	16f-)	.	16b-)	.	16ddd-)	.
(8g	.	(8f-	.	(8b-	.	(8ddd-	.
8.a-)	.	8.e-)	.	8.a-)	.	8.ccc	.
16a-	.	16C	.	16e-	.	16ccc)	.
(8a-	.	(8C	.	(8e-	.	(8ccc	.
8.b-)	.	8.D-)	.	8.f)	.	8.bb-	.
16b	.	16D-	.	16f	.	16aa-)	.
=315	=315	=315	=315	=315	=315	=315	=315
(8b	.	(8D-	.	4f	.	[4aa-	.
8cc	.	8C	.	.	.	.	.
16a-	.	8D-)	.	8A- 8f	.	(16aa-]	.
16f)	.	.	.	.	.	16bb-	.
(8e-	.	4E-	.	(16A-	.	16bb	.
.	.	.	.	16a-	.	16ccc	.
8.d-	.	.	.	8.b-	.	8bb-	.
.	.	8E-	.	.	.	8gg)	.
16B-)	.	.	.	16dd-)	.	.	.
(8B-	.	(8E-	.	(8dd-	.	(8gg	.
8A-)	.	8A-	.	16cc)	.	16aa-	.
.	.	.	.	(16e-	.	16cc	.
*clefF4	*clefF4	*	*	*	*	*	*
(16AA-	.	16E-	.	16c	.	16ff	.
16AA)	.	16C)	.	16e-)	.	16ee-)	.
(8AA	.	(8C	.	(8e-	.	(8.ee-	.
8BB-)	.	16D-)	.	16d-)	.	.	.
.	.	8E-	.	16d-	.	16gg)	.
(16GG	.	.	.	(16B-	.	(16gg	.
16FF)	.	16E-	.	16A-)	.	16aa-)	.
=316	=316	=316	=316	=316	=316	=316	=316
(8FF	.	[4E-	.	8G	.	(4aa	.
8EE-)	.	.	.	4G 4g	.	.	.
(16EE-	.	(16E-]	.	.	.	8bb-)	.
16D-)	.	16F-)	.	.	.	.	.
*	*	*	*	*^	*	*	*
(4D-	.	(4F-	.	(16g	8G	.	(8.bb-	.
.	.	.	.	16f)	.	.	.	.
*	*	*	*	*v	*v	*	*	*
.	.	.	.	(8f	.	.	.
.	.	.	.	.	.	32ccc	.
.	.	.	.	.	.	32bb-	.
16C	.	16E-	.	16e-	.	16aa-	.
16BB-)	.	16D-)	.	16d-)	.	16gg)	.
4AA-	.	4C	.	4c	.	(8ff	.
.	.	.	.	.	.	8ee-)	.
8GG	.	[8D-	.	[8B-	.	(16ee-	.
.	.	.	.	.	.	16eee-)	.
4g	.	4D-]	.	4B-]	.	(8.eee-	.
.	.	.	.	.	.	16gg)	.
(16g	.	(16C	.	(16A-	.	(16aa-	.
16d-)	.	16D-)	.	16G)	.	16bb-)	.
=317	=317	=317	=317	=317	=317	=317	=317
4e-	.	(8.D-	.	(8.G	.	(8.bb	.
.	.	16C)	.	16A-)	.	16ccc)	.
8E-	.	(16C	.	(16A-	.	8ccc	.
.	.	16A-)	.	16c)	.	.	.
(4E-	.	(16A-	.	(16c	.	(16ccc	.
.	.	16G	.	16d-	.	16bb	.
.	.	16A-)	.	16c	.	16ccc	.
.	.	(16A-	.	16cc	.	16cc	.
16D-	.	16B-	.	16b-	.	16dd-	.
16C)	.	16c)	.	16a-)	.	16ee-)	.
(4BB-	.	(8d-	.	(8e-	.	(16ff	.
.	.	.	.	.	.	16ee-	.
.	.	8e-)	.	8d-	.	16ff	.
.	.	.	.	.	.	16gg)	.
8AA-	.	8e-	.	8c)	.	(16gg	.
.	.	.	.	.	.	16aa-)	.
8GG-	.	(16c	.	(16e-	.	(16aa-	.
.	.	16B-	.	16d-	.	16bb-)	.
8G-	.	16A-	.	16c	.	(16bb-	.
.	.	16c	.	16e-	.	16aa-	.
16F	.	16d-	.	16f	.	16bb-	.
16E-)	.	16e-)	.	16g-)	.	16ccc)	.
=318	=318	=318	=318	=318	=318	=318	=318
(8E-	.	(8A-	.	(8g-	.	(8ccc	.
8.D-	.	8.a-)	.	8.f	.	8.ddd-	.
16C)	.	16a-	.	16e-)	.	16eee-)	.
8c	.	(8e-	.	8a-	.	(8eee-	.
(8.B-	.	8.d	.	(8.a-	.	8.fff	.
16F-)	.	16d-)	.	16b-)	.	16ggg)	.
(8F-	.	(8d-	.	(8b-	.	(8ggg	.
8.E-)	.	8.c)	.	8.a-)	.	8.aaa-)	.
16EE-	.	16C	.	16a-	.	16aaa-	.
(8EE-	.	(8c	.	8a-	.	(8aaa-	.
8.DD-)	.	8.F) 8.A-	.	(8.a-	.	8.bbb-	.
16DD-	.	16F 16A-	.	16ff)	.	16bbb)	.
=319	=319	=319	=319	=319	=319	=319	=319
(8DD-	.	8F 8A-	.	[4ff	.	(8bbb	.
8CC	.	8F 8A-	.	.	.	8cccc	.
[8DD-)	.	[8F	.	(16ff]	.	16aaa-	.
.	.	.	.	16dd-)	.	16fff)	.
(8DD-]	p	(8F]	p	(8cc	p	(8eee-	p
8.EE-)	.	8.G	.	8.b-	.	8.ddd-	.
[16EE-	.	16d-)	.	16g)	.	16bb-)	.
8EE-]	.	(8c	.	8e-	.	8aa-	.
8.E-	.	8cc	.	8.c	.	8.a-	.
.	.	16a-	.	.	.	.	.
16E-	.	16e-)	.	16c	.	16a	.
8.E-	.	(8e-	.	(8c	.	(8a	.
.	.	8.d-	.	8G	.	[8b-	.
16E-	.	.	.	.	.	.	.
(16E-	.	.	.	16B-	.	16b-)]	.
16D-)	.	16B-)	.	16g)	.	16ee-	.
=320	=320	=320	=320	=320	=320	=320	=320
(4C	.	8e-	.	(4g-	.	(4ee-	.
.	.	(8E-	.	.	.	.	.
16E-)	.	16G-)	.	16c)	.	16a-)	.
(16C	.	(16E-	.	(16g-	.	(16ee-	.
4D-)	.	4F)	.	4f)	.	4dd-)	.
&(16F-&)	.	&(16A-&)	.	&(16d-&)	.	&(16a-&)	.
(16D-	.	(16F-	.	[16a-	.	(16dd-	.
4E-)	.	4A-)	.	(4a-]	.	4cc)	.
&(16A-&)	.	&(16c&)	.	16e-)	.	&(16a-&)	.
[16E-	.	(16A-	.	(16c	.	(16cc	.
(4E-]	.	[4B-)	.	[4d-)	.	4e-)	.
*clefC4	*clefC4	*	*	*	*	*	*
16e-)	.	16B-]	.	16d-]	.	&(16G&)	.
(16e	.	(16b-	.	(16dd-	.	(16gg	.
=321	=321	=321	=321	=321	=321	=321	=321
8f)	p	8dd)	p	8b-)	p	8aa-)	p
8r	.	8r	.	8r	.	8r	.
16r	.	16r	.	16r	.	16r	.
(16f	pp	[16b-	pp	(16dd	pp	(16aa-	pp
8g)	.	8b-]	.	8dd-)	.	8bb-)	.
8r	.	8r	.	8r	.	8r	.
16r	.	16r	.	16r	.	16r	.
(16g	.	(16b-	.	(16dd-	.	(16bb-	.
8a-)	.	8cc)	.	8cc)	.	8ee-)	.
*clefF4	*clefF4	*	*	*	*	*	*
=322	=322	=322	=322	=322	=322	=322	=322
*M4/4	*M4/4	*M4/4	*M4/4	*M4/4	*M4/4	*M4/4	*M4/4
*MM48	*MM48	*MM48	*MM48	*MM48	*MM48	*MM48	*MM48
16E-	p	16E-	p	8r	.	8r	.
16r	.	16r	.	.	.	.	.
16E-	.	16D	.	16r	.	4r	.
16r	.	16r	.	(8e-	p	.	.
16E-	.	16D-	.	.	.	.	.
16r	.	16r	.	32f	.	.	.
.	.	.	.	32g)	.	.	.
=323	=323	=323	=323	=323	=323	=323	=323
16E-	.	16C	.	16a-	.	2r	.
16r	.	16r	.	(8d	.	.	.
16AA- 16E-	.	16C	.	.	.	.	.
16r	.	16r	.	32e-	.	.	.
.	.	.	.	32b	.	.	.
16AA- 16E-	.	16C	.	16cc)	.	.	.
16r	.	16r	.	(8g	.	.	.
16AA- 16E-	.	16C	.	.	.	.	.
16r	.	16r	.	32a-	.	.	.
.	.	.	.	32cc)	.	.	.
16AA- 16E-	.	16C	.	16ee-	.	16r	.
16r	.	16r	.	16c	.	(8ccc	p
16AA- 16E-	.	16C	.	16r	.	.	.
16r	.	16r	.	16cc	.	32bb-	.
.	.	.	.	.	.	32aa-	.
16AA- 16E-	.	16C	.	16r	.	16gg)	.
16r	.	16r	.	16c	.	(8gg-	.
16AA- 16E-	.	16C	.	16r	.	.	.
16r	.	16r	.	16ee-	.	32ff	.
.	.	.	.	.	.	32ee-	.
=324	=324	=324	=324	=324	=324	=324	=324
16BB- 16E-	.	16D-	.	16r	.	16dd-)	.
16r	.	16r	.	(8ff	.	16G	.
16BB- 16E-	.	16D-	.	.	.	16r	.
16r	.	16r	.	32ee	.	16g 16dd-	.
.	.	.	.	32ee-)	.	.	.
16BB- 16E-	.	16D-	.	16dd	.	16r	.
16r	.	16r	.	(8dd-	.	16g	.
16BB- 16E-	.	16D-	.	.	.	16r	.
16r	.	16r	.	32b-	.	16gg	.
.	.	.	.	32a-	.	.	.
16BB- 16E-	.	16D-	.	16g)	.	16r	.
16r	.	16r	.	16G	.	(8ddd-	.
16BB- 16E-	.	16D-	.	16r	.	.	.
16r	.	16r	.	16g	.	32ccc	.
.	.	.	.	.	.	32bb-)	.
16BB- 16E-	.	16D-	.	16r	.	16aa-	.
16r	.	16r	.	16ee-	.	(8gg	.
16BB 16E-	.	16D	.	16r	.	.	.
16r	.	16r	.	16ee-	.	32ff	.
.	.	.	.	.	.	32ee	.
=325	=325	=325	=325	=325	=325	=325	=325
16C	.	16E-	.	16r	.	16ee-)	.
16r	.	16r	.	(8aa-	.	16c 16e-	.
16C	.	16A-	.	.	.	16r	.
16r	.	16r	.	32ee-	.	16aa-	.
.	.	.	.	32ee	.	.	.
16D-	.	16A-	.	16ff)	.	16r	.
16r	.	16r	.	16f	.	(8ff	.
16A-	.	16d-	.	16r	.	.	.
16r	.	16r	.	16f	.	32ee	.
.	.	.	.	.	.	32ee-	.
16F	.	16A-	.	16r	.	16dd-)	.
16r	.	16r	.	(8ee-	.	16e-	.
16G	.	16B-	.	.	.	16r	.
16r	.	16r	.	32dd	.	16ee-	.
.	.	.	.	32dd-	.	.	.
16A-	.	16c	.	16cc)	.	16r	.
16r	.	16r	.	16e-	.	(8ddd-	.
16B-	.	16d-	.	16r	.	.	.
16r	.	16r	.	16ee-	.	32bb-	.
.	.	.	.	.	.	32gg	.
=326	=326	=326	=326	=326	=326	=326	=326
16c	.	16e-	.	16r	.	16aa-)	.
16r	.	16r	.	(8ccc	.	16c 16e-	.
16E- 16c	.	16A- 16e-	.	.	.	16r	.
16r	.	16r	.	32bb-	.	16c 16a-	.
.	.	.	.	32aa-	.	.	.
16E- 16c	.	16A- 16e-	.	16gg	.	16r	.
16r	.	16r	.	32aa-	.	16e- 16cc	.
.	.	.	.	32bb-	.	.	.
16E- 16c	.	16A- 16e-	.	16aa-	.	16r	.
16r	.	16r	.	32ee-	.	16cc 16aa-	.
.	.	.	.	32cc)	.	.	.
16E- 16B-	.	16G 16e-	.	16b-	.	16r	.
16B-	.	16E- 16G	.	16e-	.	(8ddd-	.
16E-	.	16G 16e-	.	16r	.	.	.
16d-	.	16E- 16G	.	16ee-	.	32ccc	.
.	.	.	.	.	.	32bb-	.
16E-	.	16G 16e-	.	16r	.	32aa-	.
.	.	.	.	.	.	32gg	.
16d-	.	16E- 16G	.	16e-	.	32bb-	.
.	.	.	.	.	.	32ee-	.
16E-	.	16B- 16e-	.	16r	.	32ff	.
.	.	.	.	.	.	32ee-	.
16d-	.	16E- 16B-	.	16ee-	.	32ff)	.
.	.	.	.	.	.	32gg	.
=327	=327	=327	=327	=327	=327	=327	=327
16E-	.	16c 16e-	.	(32a-	pp	16aa-	pp
.	.	.	.	32g	.	.	.
16c	.	16E-	.	32a-	.	[16e-	.
.	.	.	.	32e-	.	.	.
16AA-	.	16E- 16c	.	32a-	.	16e-]	.
.	.	.	.	32e-	.	.	.
16E-	.	16C	.	32f	.	16e-	.
.	.	.	.	32g	.	.	.
16AA-	.	16E- 16c	.	32a-	.	16r	.
.	.	.	.	32g	.	.	.
16E-	.	16C	.	32a-	.	[16ee-	.
.	.	.	.	32e-	.	.	.
16AA-	.	16E- 16c	.	32f	.	16ee-]	.
.	.	.	.	32g	.	.	.
16E-	.	16C	.	32a-	.	16ee-	.
.	.	.	.	32b-)	.	.	.
16AA-	.	16E- 16c	.	16e-	.	32ccc	.
.	.	.	.	.	.	32gg	.
16E-	.	16C	.	[16cc	.	32aa-	.
.	.	.	.	.	.	32gg	.
16AA-	.	16E- 16c	.	16cc]	.	32aa-	.
.	.	.	.	.	.	32bb	.
16E-	.	16C	.	16cc	.	32ccc	.
.	.	.	.	.	.	32bb	.
16AA-	.	16E- 16c	.	16r	.	32ccc	.
.	.	.	.	.	.	32ddd-	.
16E-	.	16C	.	[16a-	.	32eee-	.
.	.	.	.	.	.	32ddd	.
16C-	.	16A- 16e-	.	16a-]	.	32eee-	.
.	.	.	.	.	.	32eee	.
16E-	.	16E-	.	16a-	.	32fff	.
.	.	.	.	.	.	32eee-)	.
=328	=328	=328	=328	=328	=328	=328	=328
16BB-	.	16G 16e-	.	(32ee-	.	16ddd-	.
.	.	.	.	32dd-	.	.	.
16E-	.	16E- 16G	.	32cc	.	[16e-	.
.	.	.	.	32dd-	.	.	.
16BB-	.	16G 16e-	.	32ee-	.	16e-]	.
.	.	.	.	32dd-	.	.	.
16E-	.	16E- 16G	.	32ff	.	16e-	.
.	.	.	.	32dd-	.	.	.
16D-	.	16G 16e-	.	32cc	.	16r	.
.	.	.	.	32b-	.	.	.
16E-	.	16E- 16G	.	32dd-	.	[16d-	.
.	.	.	.	32b-	.	.	.
16BB-	.	16G 16e-	.	32a-	.	16d-]	.
.	.	.	.	32g	.	.	.
16E-	.	16E- 16G	.	32b-	.	16dd-	.
.	.	.	.	32a-)	.	.	.
16BB-	.	16G 16e-	.	16g	.	32g	.
.	.	.	.	.	.	32ff	.
16E-	.	16E- 16G	.	[16g	.	32ee	.
.	.	.	.	.	.	32ee-	.
16C	.	16A- 16e-	.	16g]	.	32dd	.
.	.	.	.	.	.	32ee-	.
16E-	.	16A-	.	16a-	.	32ddd-	.
.	.	.	.	.	.	32ccc	.
16D-	.	16B- 16e-	.	16r	.	32bb-	.
.	.	.	.	.	.	32ccc	.
16E-	.	16B-	.	[16b-	.	32ddd-	.
.	.	.	.	.	.	32ddd	.
16GG	.	16B- 16e-	.	16b-]	.	32eee-	.
.	.	.	.	.	.	32bb-	.
16E-	.	16G	.	16b-	.	32eee-	.
.	.	.	.	.	.	32ddd-)	.
=329	=329	=329	=329	=329	=329	=329	=329
16AA-	.	16C 16c	.	(32b	.	16ccc	.
.	.	.	.	32cc	.	.	.
16C	.	16C 16A-	.	32dd-	.	[16c	.
.	.	.	.	32cc)	.	.	.
16EE	.	16C 16G	.	(32cc	.	16c]	.
.	.	.	.	32b-	.	.	.
16C	.	16C	.	32a-	.	16c	.
.	.	.	.	32g	.	.	.
16FF	.	16C 16c	.	32a-	.	16r	.
.	.	.	.	32g	.	.	.
16C	.	16C 16A-	.	32f	.	[16ff	p
.	.	.	.	32e	.	.	.
16AA	.	16C 16c	.	32f	.	16ff]	.
.	.	.	.	32c	.	.	.
16F	.	16C 16A	.	32g	.	16ff	.
.	.	.	.	32f)	.	.	.
16BB-	.	16G 16e-	.	16r	.	32ff	.
.	.	.	.	.	.	32ee-	.
16G	.	16E- 16G	.	8B-	p	32dd	.
.	.	.	.	.	.	32ee-	.
16BB-	.	16G 16e-	.	.	.	32ff#	.
.	.	.	.	.	.	32gg	.
16G	.	16E- 16G	.	16b-	.	32aa	.
.	.	.	.	.	.	32bb-	.
16BB-	.	16G 16e-	.	16r	.	32ccc	.
.	.	.	.	.	.	32bb-	.
16G	.	16E- 16G	.	16e-	.	32ddd	.
.	.	.	.	.	.	32eee-	.
16BB-	.	16A- 16f	.	16d	.	32fff	.
.	.	.	.	.	.	32ddd	.
16A-	.	16F 16A-	.	16dd	.	32fff)	.
.	.	.	.	.	.	32ggg	.
=330	=330	=330	=330	=330	=330	=330	=330
16C-	.	16A- 16f	.	32r	.	8aaa-	.
.	.	.	.	(32dd	.	.	.
16A-	.	16D	.	32ff	.	.	.
.	.	.	.	32gg)	.	.	.
16BB-	.	16A- 16f	.	8aa-	.	32r	.
.	.	.	.	.	.	(32aa-	.
16A-	.	16D	.	.	.	32ff	.
.	.	.	.	.	.	32ee-	.
16C-	.	16A- 16f	.	32r	.	8dd)	.
.	.	.	.	(32d	.	.	.
16A-	.	16D	.	32f	.	.	.
.	.	.	.	32g	.	.	.
16BB-	.	16d 16f	.	8a-)	.	32r	.
.	.	.	.	.	.	(32ccc	.
16B-	.	16F 16A-	.	.	.	32bb-	.
.	.	.	.	.	.	32dd)	.
16E-	.	16G 16e-	.	16r	.	(32ff	.
.	.	.	.	.	.	32ee-	.
16G	.	16B-	.	[16e-	.	32dd	.
.	.	.	.	.	.	32dd-	.
16E-	.	16E- 16c	.	16e-]	.	32cc	.
.	.	.	.	.	.	32b-	.
16A-	.	16E-	.	16c	.	32a-	.
.	.	.	.	.	.	32g	.
16E-	.	16E- 16d-	.	16r	.	32f	.
.	.	.	.	.	.	32e-	.
16B-	.	16G	.	[16ee-	.	32d	.
.	.	.	.	.	.	32d-	.
16E-	.	16A-	.	16ee-]	.	32c	.
.	.	.	.	.	.	32B	.
16c	.	16E-	.	16ee-	.	32B-	.
.	.	.	.	.	.	32A-)	.
=331	=331	=331	=331	=331	=331	=331	=331
16E-	.	16B- 16e-	.	16ee-	.	16G	.
16d-	.	16G	.	8e-	.	8g	.
16E-	.	16B-	.	.	.	.	.
16d-	.	16G	.	(32e-	.	(32g	.
.	.	.	.	32f	.	32a-	.
16E-	.	16d-	.	16g)	.	16b-)	.
16d-	.	16E-	.	8g	.	8b-	.
16E-	.	16d-	.	.	.	.	.
16d-	.	16E-	.	(32g	.	(32b-	.
.	.	.	.	32a-	.	32cc	.
16E-	.	8E- 8d-	.	16b-)	.	16dd-)	.
16r	.	.	.	8gg	.	16e-	.
(16e-	.	8r	.	.	.	16ee-	.
32d-	.	.	.	(32gg	.	(32ee-	.
32B-	.	.	.	32aa-	.	32ff)	.
16E-)	.	8r	.	16bb-)	.	16gg	.
16r	.	.	.	(8gg	.	(8bb-	.
8r	.	(16dd-	.	.	.	.	.
.	.	32cc	.	32aa-	.	32ccc	.
.	.	32b-	.	32bb-	.	32ddd-	.
=332	=332	=332	=332	=332	=332	=332	=332
16r	.	16a-)	.	8ccc)	.	8eee-)	.
8A-	.	8C	.	.	.	.	.
.	.	.	.	(16aa-	.	8r	.
(32A-	.	(32C	.	32ee-	.	.	.
32B-	.	32E-	.	32dd-	.	.	.
16c)	.	16A-)	.	8cc)	.	8r	.
8e-	.	8c	.	.	.	.	.
.	.	.	.	[8aa-	.	(16aa-	.
(32e-	.	(32c	.	.	.	32ee-	.
32f	.	32d-	.	.	.	32dd-	.
8g-)	.	8e-)	.	16aa-]	.	16cc)	.
.	.	.	.	(8ccc	.	(8ee-	.
16r	.	(16a-	.	.	.	.	.
[16A-	.	32f	.	32ddd-	.	32ff	.
.	.	32d-)	.	32eee-	.	32gg-)	.
(32A-]	.	(16c	.	16eee-)	.	16gg-	.
32E-	.	.	.	.	.	.	.
32C	.	32A-	.	[16ee-	.	[16gg-	.
32AA-)	.	32C)	.	.	.	.	.
(16AA-	.	(16e-	.	(32ee-]	.	(32gg-]	.
.	.	.	.	32ff	.	32aa-	.
32GG-	.	32c	.	32gg-)	.	32bb-	.
32EE-)	.	32A-)	.	32gg-	.	32ccc)	.
=333	=333	=333	=333	=333	=333	=333	=333
16DD-	f	16a-	f	16ff-	f	[2ddd-	f
8DD-	.	8D-	.	8d-	.	.	.
(32DD-	.	(32D-	.	(32d-	.	.	.
32EE-	.	32E-	.	32e-	.	.	.
16FF-)	.	16F-)	.	16f-)	.	.	.
8D-	.	8d-	.	8dd-	.	.	.
(32D-	.	(32d-	.	(32dd-	.	.	.
32E-	.	32e-)	.	32ee-	.	.	.
16F-)	.	16f-	.	8ff-)	.	16ddd-]	.
16r	.	16r	.	.	.	8dd-	p
16f-	p	16a-	p	(16f-	p	.	.
16r	.	16r	.	32d-	.	(32dd-	.
.	.	.	.	32A-)	.	32ee-	.
16d	.	16a- 16b-	.	8r	.	16ff-)	.
16r	.	16r	.	.	.	(8ff	.
16d	.	16a- 16b-	.	(16a-	.	.	.
16r	.	16r	.	32f	.	32gg	.
.	.	.	.	32d)	.	32aa-)	.
=334	=334	=334	=334	=334	=334	=334	=334
16e-	.	16a- 16cc	.	8r	.	16aa-	.
16r	.	16r	.	.	.	(8ee-	.
16e-	.	16cc	.	(16cc	.	.	.
16r	.	16r	.	32a-	.	32ff	.
.	.	.	.	32a)	.	32ee-)	.
16e-	.	16g 16b-	.	8r	.	16ee-	.
16r	.	16r	.	.	.	(8dd	.
16e-	.	16b-	.	(16bb-	.	.	.
16r	.	16r	.	32ff	.	32dd-	.
.	.	.	.	32gg	.	32b-)	.
(16e-	.	16a-	.	16aa-)	.	8r	.
32c	.	16r	.	(8ee-	.	.	.
32A-	.	.	.	.	.	.	.
8E-)	.	(16a-	.	.	.	(16ccc	.
.	.	32e-	.	32ff	.	32aa-	.
.	.	32c	.	32ee-)	.	32aa)	.
(16e-	.	8B-)	.	16ee-	.	8r	.
32B-	.	.	.	(8dd	.	.	.
32G)	.	.	.	.	.	.	.
(16F	.	(16B-	.	.	.	(16bb-	.
32E-	.	32B-	.	32dd-	.	32ff	.
32E-)	.	32E-)	.	32b-	.	32gg)	.
=335	=335	=335	=335	=335	=335	=335	=335
(16G-	.	8c	.	8e-) 8cc	.	16aa-	.
32E-	.	.	.	.	.	(8b--	.
32C)	.	.	.	.	.	.	.
8GG-	.	(16e-	.	8r	.	.	.
.	.	32c	.	.	.	32a-	.
.	.	32G-)	.	.	.	32ee-)	.
(16F	.	8r	.	16r	.	8dd-	.
32D-	.	.	.	(8B-	.	.	.
32AA-	.	.	.	.	.	.	.
8FF)	.	(16f	.	.	.	8r	.
.	.	32d-	.	32A-	.	.	.
.	.	32A-)	.	32d-	.	.	.
(16E-	.	8r	.	8c)	.	16r	.
32C	.	.	.	.	.	(8ff	.
32AA-	.	.	.	.	.	.	.
8EE-)	.	(16e-	.	8r	.	.	.
.	.	32c	.	.	.	32ee-	.
.	.	32A-	.	.	.	32ccc	.
(16E-	.	8G)	.	16r	.	8bb-)	.
32D-	.	.	.	(8g	.	.	.
32BB-	.	.	.	.	.	.	.
8EE-)	.	(16B-	.	.	.	8r	.
.	.	32G	.	32f-	.	.	.
.	.	32D-	.	32e-	.	.	.
=336	=336	=336	=336	=336	=336	=336	=336
(16E-	.	8C)	.	8a-)	.	16r	.
32C	.	.	.	.	.	(8ff	.
32AA-)	.	.	.	.	.	.	.
8EE-	.	(16c	.	8r	.	.	.
.	.	32A-	.	.	.	32ee-	.
.	.	32E-	.	.	.	32aa-	.
(16E-	.	8D-)	.	16r	.	8bb-)	.
32D-	.	.	.	(8f-	.	.	.
32BB-	.	.	.	.	.	.	.
8EE-)	.	(16B-	.	.	.	(16G	.
.	.	32G	.	32e-	.	32B-	.
.	.	32D-)	.	32b-	.	32G	.
16EE-	.	16C 16c	.	32a-)	.	8A-)	.
.	.	.	.	(32A-	.	.	.
16c	.	16C	.	32B-	.	.	.
.	.	.	.	32c	.	.	.
16E-	.	16C 16A-	.	32d	.	8r	.
.	.	.	.	32e-	.	.	.
16c	.	16C	.	32A-	.	.	.
.	.	.	.	32e)	.	.	.
16D-	.	16G 16B-	.	(32e	.	8r	.
.	.	.	.	32f	.	.	.
16B-	.	16E-	.	32B-	.	.	.
.	.	.	.	32g)	.	.	.
16C	.	16c 16e-	.	(32g	.	32r	.
.	.	.	.	32a-	.	(32eee-	.
16A-	.	16E-	.	32e-	.	32ddd-	.
.	.	.	.	32a-)	.	32ccc	.
=337	=337	=337	=337	=337	=337	=337	=337
16GG	.	16E- 16d-	.	16b-	.	32bb-	.
.	.	.	.	.	.	32ccc	.
16E-	.	16G	.	[16e-	.	32ddd-	.
.	.	.	.	.	.	32ccc	.
16BB-	.	16E- 16d-	.	16e-]	.	32ddd-	.
.	.	.	.	.	.	32eee-	.
16G	.	16B-	.	16e-	.	32fff	.
.	.	.	.	.	.	32eee-	.
16BB-	.	16E- 16d-	.	16r	.	32ddd-	.
.	.	.	.	.	.	32eee-	.
16G	.	16B-	.	[16ee-	.	32ddd-	.
.	.	.	.	.	.	32ccc	.
16D-	.	16E- 16B-	.	16ee-]	.	32bb-	.
.	.	.	.	.	.	32ccc	.
16B-	.	16G	.	16ee-	.	32bb-	.
.	.	.	.	.	.	32aa-	.
16D-	.	16E- 16B-	.	32b-	.	16gg)	.
.	.	.	.	32e-	.	.	.
16B-	.	16E-	.	32f	.	[16G	.
.	.	.	.	32e-	.	.	.
16D-	.	16E- 16B-	.	32f	.	16G]	.
.	.	.	.	32e-	.	.	.
16B-	.	16E-	.	32f	.	16e-	.
.	.	.	.	32g	.	.	.
16C	.	16E- 16c	.	32g	.	16r	.
.	.	.	.	32a-	.	.	.
16A-	.	16C	.	32e-	.	[16ee-	.
.	.	.	.	32a-	.	.	.
16BB-	.	16E- 16d-	.	32a-	.	16ee-]	.
.	.	.	.	32b-	.	.	.
16G	.	16D-	.	32e-	.	16ee-	.
.	.	.	.	32b-	.	.	.
=338	=338	=338	=338	=338	=338	=338	=338
16AA-	.	16E- 16A-	.	(32b-	.	(32ccc	.
.	.	.	.	32e-	.	32ddd-	.
16A-	.	16C	.	8cc)	.	32eee-	.
.	.	.	.	.	.	32ddd-	.
16E-	.	16E- 16A-	.	.	.	32ccc	.
.	.	.	.	.	.	32ddd-	.
16c	.	16C	.	16e-	.	32ccc	.
.	.	.	.	.	.	32bb-)	.
16AA-	.	16E- 16A-	.	16r	.	(32bb-	.
.	.	.	.	.	.	32ccc	.
16A-	.	16E-	.	8cc	.	32bb-	.
.	.	.	.	.	.	32aa-)	.
16E-	.	16E- 16c	.	.	.	(32aa-	.
.	.	.	.	.	.	32gg	.
16c	.	16A-	.	16ee-	.	32aa-	.
.	.	.	.	.	.	32bb-	.
16GG-	.	16E- 16A-	.	32ee-	.	16ccc)	.
.	.	.	.	32ff	.	.	.
16A-	.	16C	.	32gg-	.	[16A-	.
.	.	.	.	32ff	.	.	.
16AA-	.	16E- 16c	.	32ee-	.	16A-]	.
.	.	.	.	32ff	.	.	.
16A-	.	16C	.	32ee-	.	16A-	.
.	.	.	.	32dd-)	.	.	.
16GG-	.	16E- 16c	.	(32dd-	.	16r	.
.	.	.	.	32cc	.	.	.
16A-	.	16C	.	32dd-	.	8ee-	.
.	.	.	.	32ee-	.	.	.
16G-	.	16E- 16c	.	32b-	.	.	.
.	.	.	.	32a-	.	.	.
16e-	.	16C	.	32b-	.	16aa-	.
.	.	.	.	32cc	.	.	.
=339	=339	=339	=339	=339	=339	=339	=339
16FF-	.	16A-	.	16dd-)	.	32r	.
.	.	.	.	.	.	(32aa-	.
16A-	.	16F-	.	[16d-	.	32ddd-	.
.	.	.	.	.	.	32ccc	.
16F-	.	16A-	.	16d-]	.	32ddd-)	.
.	.	.	.	.	.	(32aa-	.
16d-	.	16F-	.	16f-	.	32ddd-	.
.	.	.	.	.	.	32ccc	.
16FF-	.	16A-	.	32r	.	16ddd-)	.
.	.	.	.	(32a-	.	.	.
16A-	.	16F-	.	32dd-	.	[16aa-	.
.	.	.	.	32cc	.	.	.
16F-	.	16A-	.	32dd-)	.	16aa-]	.
.	.	.	.	(32a-	.	.	.
16d-	.	16F-	.	32dd-	.	16aa-	.
.	.	.	.	32ee-)	.	.	.
16DD-	.	16A-	.	32ff-	.	32r	.
.	.	.	.	32g	.	(32ff-	.
16A-	.	16D-	.	[16a-	.	32fff-	.
.	.	.	.	.	.	32ff-	.
16D-	.	16A-	.	16a-]	.	32fff-)	.
.	.	.	.	.	.	(32ff	.
16A-	.	16F	.	16a-	.	32fff	.
.	.	.	.	.	.	32ff	.
16D-	.	16B- 16e	.	32r	.	16gg)	.
.	.	.	.	(32g	.	.	.
16B-	.	16D-	.	32gg	.	16e	.
.	.	.	.	32g	.	.	.
16D	.	16B-	.	32aa-)	.	16f	.
.	.	.	.	(32b-	.	.	.
16A-	.	16D	.	32bb-	.	16f	.
.	.	.	.	32b-)	.	.	.
=340	=340	=340	=340	=340	=340	=340	=340
16E-	p	16c 16e-	p	16aa-	p	32r	.
.	.	.	.	.	.	(32aa-	p
16c	.	16E-	.	[16a-	.	32aaa-	.
.	.	.	.	.	.	32ggg	.
16E-	.	16c 16e-	.	16a-]	.	32aaa-	.
.	.	.	.	.	.	32eee-	.
16c	.	16E-	.	16a-	.	32fff	.
.	.	.	.	.	.	32eee-	.
16E-	.	16B- 16g	.	16r	.	32ddd-	.
.	.	.	.	.	.	32bb-	.
16d-	.	16G 16e-	.	[16b-	.	32ccc	.
.	.	.	.	.	.	32bb-	.
16E-	.	16B- 16e-	.	16b-]	.	32gg	.
.	.	.	.	.	.	32ee-	.
16d-	.	16G 16e-	.	16b-	.	32ff	.
.	.	.	.	.	.	32ee-)	.
16E-	.	16c 16e-	.	32r	.	16aa-	.
.	.	.	.	(32e-	.	.	.
16c	.	16C	.	32ee-	.	[16a-	.
.	.	.	.	32dd	.	.	.
16E-	.	16c 16e-	.	32ee-	.	16a-]	.
.	.	.	.	32cc	.	.	.
16A	.	16A	.	32b	.	(16e-	.
.	.	.	.	32cc	.	.	.
16E-	.	16B- 16e-	.	32dd-	.	16r	.
.	.	.	.	32cc	.	.	.
16B-	.	16E-	.	32dd-	.	[16e-	.
.	.	.	.	32ee-	.	.	.
16E-	.	16G 16e-	.	32ff	.	16e-]	.
.	.	.	.	32ee-	.	.	.
16d-	.	16E- 16B-	.	32ff	.	16e-	.
.	.	.	.	32gg)	.	.	.
=341	=341	=341	=341	=341	=341	=341	=341
16E-	.	16c 16e-	.	16aa-	.	32r	.
.	.	.	.	.	.	(32aa-	.
16c	.	16C 16A-	.	[16ee-	.	32eee-	.
.	.	.	.	.	.	32ddd)	.
16G-	.	16c 16a-	.	16ee-]	.	32eee-	.
.	.	.	.	.	.	(32a-	.
16e-	.	16C 16c	.	16a-	.	32gg-	.
.	.	.	.	.	.	32ee-	.
16F	.	16d- 16a-	.	32r	.	16dd-)	.
.	.	.	.	(32a-	.	.	.
16d-	.	16F 16d-	.	32dd-	.	[16aa-	.
.	.	.	.	32cc	.	.	.
16F-	.	16d- 16a-	.	32dd-)	.	16aa-]	.
.	.	.	.	(32a-	.	.	.
16d-	.	16A- 16a-	.	32ff-	.	16aa-	.
.	.	.	.	32dd-	.	.	.
16E-	.	16A- 16a-	.	16cc)	.	32r	.
.	.	.	.	.	.	(32aa-	.
16d-	.	16E-	.	[16a-	.	32bb-	.
.	.	.	.	.	.	32aa-	.
16E-	.	16c 16a-	.	16a-]	.	32ccc)	.
.	.	.	.	.	.	(32aa-	.
16c	.	16E-	.	16ee-	.	32bb-	.
.	.	.	.	.	.	32aa-	.
16D-	.	16B- 16g	.	32r	.	16ee-)	.
.	.	.	.	(32e-	.	.	.
16c	.	16E-	.	32f	.	[16gg	.
.	.	.	.	32e-	.	.	.
16D-	.	16B- 16e-	.	32g)	.	16gg]	.
.	.	.	.	32e-	.	.	.
16B-	.	16D-	.	(32f	.	16gg	.
.	.	.	.	32e-	.	.	.
=342	=342	=342	=342	=342	=342	=342	=342
16C	.	16B- 16e-	.	16a-)	.	32r	.
.	.	.	.	.	.	(32ee-	.
16B-	.	16C	.	16e-	.	32aa-	.
.	.	.	.	.	.	32gg)	.
16C	.	16A- 16e-	.	32r	.	16aa-	.
.	.	.	.	(32e-	.	.	.
16A-	.	16C	.	32cc	.	16ee-	.
.	.	.	.	32b-)	.	.	.
16D-	.	16B- 16e-	.	16b-	.	32r	.
.	.	.	.	.	.	(32ee-	.
16A-	.	16D-	.	16e-	.	32bb-	.
.	.	.	.	.	.	32aa	.
16D-	.	16G 16e-	.	32r	.	16bb-)	.
.	.	.	.	(32e-	.	.	.
16G	.	16E-	.	32cc	.	16ee-	.
.	.	.	.	32b-)	.	.	.
16C	.	16A- 16e-	.	16a-	.	32r	.
.	.	.	.	.	.	(32ee-	.
16A-	.	16C	.	(16e-	.	32aa-	.
.	.	.	.	.	.	32gg)	.
16CC	.	16A-	.	16a-)	.	16aa-	.
16C	.	16C	.	16c	.	16c	.
(8CC#	p	(8C#	p	(8c#	p	(8c#	p
[8EE)	.	[8E)	.	[8e)	.	[8e)	.
=343	=343	=343	=343	=343	=343	=343	=343
*k[f#c#g#d#]	*k[f#c#g#d#]	*k[f#c#g#d#]	*k[f#c#g#d#]	*k[f#c#g#d#]	*k[f#c#g#d#]	*k[f#c#g#d#]	*k[f#c#g#d#]
*M2/2	*M2/2	*M2/2	*M2/2	*M2/2	*M2/2	*M2/2	*M2/2
1EE]	.	(2.E]	.	4e]	.	(2e]	.
.	.	.	.	(2G#	.	.	.
.	.	.	.	.	.	4g#)	.
.	.	4G)	.	4A#)	.	&(4cc#&)	.
=344	=344	=344	=344	=344	=344	=344	=344
(2DD#	.	2F#	.	4f#	.	(4cc#	.
.	.	.	.	2B 2f#	.	[4b)	.
2AA)	.	2F# 2B	.	.	.	8b]	.
.	.	.	.	.	.	(8b	.
.	.	.	.	[4b	.	8cc#	.
.	.	.	.	.	.	8dd#)	.
=345	=345	=345	=345	=345	=345	=345	=345
(4GG#	.	(4E 4B	.	(8b]	.	(4..ee	.
.	.	.	.	[8e) [8ee	.	.	.
4AA)	.	4E) 4c#	.	2.e_ 2.ee_	.	.	.
.	.	.	.	.	.	16f#)	.
(4BB	.	(4E 4B	.	.	.	(4f#	.
4C)	.	4A#)	.	.	.	4f#)	.
=346	=346	=346	=346	=346	=346	=346	=346
(4BB	p	4B	p	4.e] 4.ee]	p	(4f#	p
4AA#	.	(8E	.	.	.	[4cc#	.
.	.	[8G	.	[8e	.	.	.
8BB)	.	8G]	.	(8e]	.	16cc#]	.
.	.	.	.	.	.	16b	.
(8BB	.	8F#)	.	8d#	.	4bb	.
8d#)	.	&(8f#&)	.	8b	.	.	.
8d#	.	8f#	.	8b)	.	8aa)	.
*clefC4	*clefC4	*	*	*	*	*	*
=347	=347	=347	=347	=347	=347	=347	=347
(2e	.	(4B	.	(2g# 2b	.	(8aa	.
.	.	.	.	.	.	8gg#)	.
.	.	2.e)	.	.	.	(8gg#	.
.	.	.	.	.	.	16eee	.
.	.	.	.	.	.	16ccc#)	.
4g	.	.	.	4cc#	.	(8bb	.
.	.	.	.	.	.	8aa#)	.
4cc#)	.	.	.	4g)	.	8aa#	.
.	.	.	.	.	.	8aa#	.
=348	=348	=348	=348	=348	=348	=348	=348
4cc#	.	(2d#	.	(2f#	.	(8aa#	.
.	.	.	.	.	.	8bb)	.
[4b	.	.	.	.	.	(8bb	.
.	.	.	.	.	.	16aaa	.
.	.	.	.	.	.	16fff#)	.
8b]	.	2f#)	.	4a)	.	(8eee	.
(8b	.	.	.	.	.	8ddd#	.
8cc#	.	.	.	4a 4b	.	8ccc#	.
8dd#)	.	.	.	.	.	8bb)	.
=349	=349	=349	=349	=349	=349	=349	=349
*^	*	*	*	*	*	*	*
4ee	4r	.	4e	.	4g# 4b	.	(8bb	.
.	.	.	.	.	.	.	8ee	.
*v	*v	*	*	*	*	*	*	*
*clefF4	*clefF4	*	*	*	*	*	*
*^	*	*	*	*	*	*	*
[2.BB	(4EE	.	(4G#	.	[4B	.	8gg#	.
.	.	.	.	.	.	.	8bb)	.
.	4DD#	.	4F#	.	8B]	.	(8ccc#	.
.	.	.	.	.	4b	.	8ddd#	.
.	4CC#)	.	4E)	.	.	.	8eee	.
.	.	.	.	.	[8a#	.	8fff#)	.
=350	=350	=350	=350	=350	=350	=350	=350	=350
2BB_	[2CC	f	[2E [2G	.	(4a#]	f	4.ggg	f
.	.	.	.	.	8ee	.	.	.
.	.	.	.	.	8e)	.	8A#	.
*v	*v	*	*	*	*	*	*	*
*^	*	*	*	*	*	*	*
8BB]	8CC]	p	8E] 8G]	p	(8e	.	8A#	p
*v	*v	*	*	*	*	*	*	*
4DD# 4BB	.	4F#	.	8B)	.	4B	.
.	.	.	.	8r	.	.	.
8DD# 8BB	.	8F#	.	[8b	.	8B	.
=351	=351	=351	=351	=351	=351	=351	=351
(2DD#	p	(2F#	.	1b_	p	(4.f#	p
.	.	.	.	.	.	8e	.
2FF#	.	2A	.	.	.	4d#	.
.	.	.	.	.	.	8e	.
.	.	.	.	.	.	8f#)	.
=352	=352	=352	=352	=352	=352	=352	=352
*	*	*	*	*^	*	*	*
2EE#	.	2G#	.	1b]	1d	.	(4.g#	.
.	.	.	.	.	.	.	8f#	.
4.GG#	.	2B)	.	.	.	.	4e#	.
.	.	.	.	.	.	.	8f#	.
8EE#)	.	.	.	.	.	.	8g#)	.
*	*	*	*	*v	*v	*	*	*
=353	=353	=353	=353	=353	=353	=353	=353
4FF#	.	(4A	.	(4d#	.	(4a	.
4BB	.	[4F#)	.	[4A) [4a	.	[4dd#)	.
[2CC [2C	.	2F#]	.	2A] 2a]	.	(4dd#]	.
.	.	.	.	.	.	8ee	.
.	.	.	.	.	.	8ff#)	.
=354	=354	=354	=354	=354	=354	=354	=354
4.CC] 4.C]	f	4.C 4.c	f	4.G 4.g	f	4.ee	f
[8DD#	.	[8F#	.	[8f#	.	[8b	.
(8DD#]	p	(8F#]	p	(8f#]	p	(8b]	p
8EE)	.	8G#)	.	8e)	.	16B	.
.	.	.	.	.	.	16b)	.
*clefC4	*clefC4	*	*	*	*	*	*
8e	.	8g#	.	(8g#	.	(16b	.
.	.	.	.	.	.	16bb	.
8e	.	8g#	.	8b)	.	16aa#	.
.	.	.	.	.	.	16bb)	.
=355	=355	=355	=355	=355	=355	=355	=355
(4.f#	.	(4.a	.	(4.dd#	.	(2bb	.
8e	.	8g#	.	8ee	.	.	.
4d#	.	4f#	.	8b	.	4fff#	.
.	.	.	.	8ff#	.	.	.
8e	.	8g#	.	8ee	.	4bb)	.
8f#)	.	8a)	.	8dd#)	.	.	.
=356	=356	=356	=356	=356	=356	=356	=356
(4.g#	.	(4.b	.	(4.ee	.	(2bb	.
8f#	.	8a	.	8ff#	.	.	.
4e#	.	4g#	.	8b	.	4ggg#	.
.	.	.	.	8gg#	.	.	.
8f#	.	8a	.	8ff#	.	4bb)	.
8g#)	.	8b)	.	8ee#)	.	.	.
*clefC4	*clefG2	*	*	*	*	*	*
=357	=357	=357	=357	=357	=357	=357	=357
(4a	.	4f#	.	(8a	.	(4ddd#	.
.	.	.	.	8aa)	.	.	.
[4dd#	.	2.C 2.c	.	2.f# 2.dd#	.	4fff#	.
4dd#]	.	.	.	.	.	2aaa)	.
8ee	.	.	.	.	.	.	.
8ff#)	.	.	.	.	.	.	.
=358	=358	=358	=358	=358	=358	=358	=358
4.ee	f	4.C 4.c	f	(4e 4ee	f	(8ggg	f
.	.	.	.	.	.	8fff#	.
.	.	.	.	8g	.	8eee)	.
[8b	.	8D# 8B	.	8f#)	.	[8fff#	.
*	*	*^	*	*	*	*	*
8b]	p	4B	8D#	p	8f#	p	(8fff#]	p
8B	.	.	8E	.	16g#	.	8eee)	.
.	.	.	.	.	16g	.	.	.
*clefF4	*clefF4	*	*	*	*	*	*	*
*	*	*v	*v	*	*	*	*	*
(8CC	.	(8C 8c	.	(8G 8g	.	(8ee	.
8DD#)	.	8D#)	.	8f#)	.	8b)	.
=359	=359	=359	=359	=359	=359	=359	=359
*^	*	*	*	*	*	*	*
(4D	1EE	.	[2E	.	(4G#	.	(8b	.
.	.	.	.	.	.	.	8g#	.
8C#	.	.	.	.	4A	.	8b	.
8C	.	.	.	.	.	.	[8a)	.
4BB	.	.	4E]	.	4B	.	(8a]	.
.	.	.	.	.	.	.	8e	.
4AA#	.	.	4E	.	4c#)	.	8g#	.
.	.	.	.	.	.	.	[8f#)	.
=360	=360	=360	=360	=360	=360	=360	=360	=360
8AA	2EE	.	(4.E	.	(8c	.	8f#]	.
8GG#	.	.	.	.	4.B)	.	8e	.
4AA)	.	.	.	.	.	.	8f#	.
.	.	.	8D#)	.	.	.	8B	.
*v	*v	*	*	*	*	*	*	*
=361	=361	=361	=361	=361	=361	=361	=361
*M12/8	*M12/8	*M12/8	*M12/8	*M12/8	*M12/8	*M12/8	*M12/8
*MM84	*MM84	*MM84	*MM84	*MM84	*MM84	*MM84	*MM84
8r	pp	8r	pp	8r	pp	[2.e	pp
(8EE	.	(8E	.	(8e	.	.	.
8EE	.	8E	.	8e	.	.	.
8EE	.	8E	.	8e	.	.	.
8EE	.	8E	.	8e	.	.	.
8EE)	.	8E)	.	8e)	.	.	.
=362	=362	=362	=362	=362	=362	=362	=362
(8EE	.	(8E	.	(8e	.	(8e]	.
8EE-)	.	[4E-)	.	8e-)	.	[4e-)	.
8EE-	.	.	.	&(8e-&)	.	.	.
8AA-	.	4.E-_	.	(8c 8e-	.	4.e-_	.
8C	.	.	.	8c 8e-	.	.	.
8E-	.	.	.	8c) 8e-	.	.	.
8G	.	4.E-_	.	(8c 8e-	.	4e-]	.
8A-	.	.	.	8c 8e-	.	.	.
8c	.	.	.	8c) 8e-	.	8ee-	.
8e-	.	8E-]	.	(8c 8e-	.	4ccc	.
8g	.	(8E-	.	8c 8e-	.	.	.
8a-	.	8E-)	.	8c) 8e-	.	16bb-	.
.	.	.	.	.	.	16aa-)	.
=363	=363	=363	=363	=363	=363	=363	=363
*k[b-e-a-d-]	*k[b-e-a-d-]	*k[b-e-a-d-]	*k[b-e-a-d-]	*k[b-e-a-d-]	*k[b-e-a-d-]	*k[b-e-a-d-]	*k[b-e-a-d-]
8b-	.	[2.E- [2.B-	.	(8d- 8e-	.	(4aa-	.
8EE-	.	.	.	8d- 8e-	.	.	.
8EE-	.	.	.	8d-) 8e-	.	16gg	.
.	.	.	.	.	.	16ee-)	.
8GG	.	.	.	(8d- 8e-	.	[4.eee-	.
8BB-	.	.	.	8d- 8e-	.	.	.
8D-	.	.	.	8d-) 8e-	.	.	.
8E-	.	4.E-_ 4.B-_	.	(8d- 8e-	.	(4eee-]	.
8G	.	.	.	8d- 8e-	.	.	.
8B-	.	.	.	8d-) 8e-	.	8ddd-)	.
8e-	.	8E-] 8B-]	.	(8d- 8e-	.	(4ddd-	.
8f	.	(8E- 8B-	.	8d- 8e-	.	.	.
8g	.	8E-) 8B-	.	8d-) 8e-	.	16ccc	.
.	.	.	.	.	.	16bb-)	.
=364	=364	=364	=364	=364	=364	=364	=364
8g-	.	8E- 8c	.	(8e-	.	(8bb-	.
8CC	.	[4G-	.	8A 8e-	.	8aa	.
(32DD-	.	.	.	8A) 8e-	.	8eee-)	.
32CC	.	.	.	.	.	.	.
32DD-	.	.	.	.	.	.	.
32CC)	.	.	.	.	.	.	.
8EE-	.	4.G-]	.	(8c 8e-	.	(4eee-	.
8GG-	.	.	.	8c 8e-	.	.	.
8AA	.	.	.	8c) 8e-	.	16ddd-	.
.	.	.	.	.	.	16ccc)	.
8f	.	[4.F [4.B-	.	(8B-	.	(8ccc	.
8DD-	.	.	.	8B- 8f	.	8bb-	.
8DD-	.	.	.	8d-) 8f	.	[8fff)	.
8FF	.	8F] 8B-]	.	(8d- 8f	.	(4fff]	.
8BB-	.	(8F 8B-	.	8d- 8f	.	.	.
8D-	.	8F) 8B-	.	8d-) 8f	.	16eee-	.
.	.	.	.	.	.	16ddd-)	.
=365	=365	=365	=365	=365	=365	=365	=365
*	*	*^	*	*	*	*	*
8e-	p	2.A-	4.E-	p	8c 8a-	p	4.ccc	p
8EE-	.	.	.	.	8c 8a-	.	.	.
8EE-	.	.	.	.	8c 8a-	.	.	.
8AA-	.	.	[4.F	.	8a-	.	4.ccc-	.
8C-	.	.	.	.	8a-	.	.	.
8D	.	.	.	.	8c- 8a-	.	.	.
8E-	p	[4.G	8F]	p	8g	p	(4bb-	p
8G	.	.	[4E-	.	(8B- 8e-	.	.	.
8B-	.	.	.	.	8B-) 8e-	.	16aa-	.
.	.	.	.	.	.	.	16gg)	.
*clefC4	*clefC4	*	*	*	*	*	*	*
8e-	.	8G]	8E-]	.	(8B- 8e-	.	(16ff	.
.	.	.	.	.	.	.	16ee)	.
8f	.	8A-	8E-	.	8B- 8e-	.	(16ee	.
.	.	.	.	.	.	.	16ee-)	.
8g	.	8B-	8E-	.	8B-) 8e-	.	8dd-	.
*	*	*v	*v	*	*	*	*	*
=366	=366	=366	=366	=366	=366	=366	=366
[4.A-	.	(8E- 8c	.	8c 8e-	.	8cc	.
.	.	8E- 8c	.	8ee-	.	8e-	.
.	.	8E-) 8c	.	8ee-	.	8e-	.
4A-_	.	(8E- 8c	.	(8ee-	.	8a-	.
.	.	8E- 8c	.	8ee-	.	8cc	.
(16A-]	.	8E-) 8c	.	8ee-)	.	8ee-	.
16B-)	.	.	.	.	.	.	.
[4c	.	(8E- 8c	.	(8ee-	.	8aa-	.
.	.	8E- 8c	.	8ee-	.	8ccc	.
(16c]	.	8E-) 8c	.	8ee-)	.	8eee-	.
16d-)	.	.	.	.	.	.	.
[4e-	.	(8E- 8c	.	(8ee-	.	8ggg	.
.	.	8E- 8c	.	8ee-	.	8aaa-	.
(16e-]	.	8E-) 8c	.	8ee-)	.	8aa-	.
16f)	.	.	.	.	.	.	.
=367	=367	=367	=367	=367	=367	=367	=367
[4f	.	(8E- 8d-	.	(8e- 8ee-	.	8gg	.
.	.	8E- 8d-	.	8ff	.	8e-	.
(16f]	.	8E-) 8d-	.	8ee-)	.	8e-	.
16e-)	.	.	.	.	.	.	.
[4d-	.	(8E- 8B-	.	(8e- 8ee-	.	8g	.
.	.	8E- 8B-	.	8e- 8ee-	.	8b-	.
(16d-]	.	8E-) 8B-	.	8e-) 8ee-	.	8dd-	.
16B-)	.	.	.	.	.	.	.
[4G	.	(8E- 8B-	.	(8e- 8ee-	.	8ee-	.
.	.	8E- 8B-	.	8e- 8ee-	.	8gg	.
(16G]	.	8E-) 8d-	.	8e-) 8ee-	.	8bb-	.
16e-)	.	.	.	.	.	.	.
[4d-	.	(8E- 8d-	.	(8e- 8b-	.	8eee-	.
.	.	8E- 8d-	.	8e- 8b-	.	8fff	.
(16d-]	.	8E-) 8B-	.	8g) 8b-	.	8ggg	.
16B-)	.	.	.	.	.	.	.
=368	=368	=368	=368	=368	=368	=368	=368
[4A-	.	(8E-	.	8cc	.	8aaa-	.
.	.	8E	.	8cc	.	8cc	.
16A-]	.	8F)	.	8A-	.	8ccc	.
(16a-	.	.	.	.	.	.	.
[4g)	.	(8F	.	(8A-	.	8r	.
.	.	8G	.	8B-	.	8cc	.
(16g]	.	8A-)	.	8c)	.	8ff	.
16f)	.	.	.	.	.	.	.
[4f	.	(8A	.	8c	.	8r	.
.	.	8B-)	.	8G 8g	.	8b-	.
(16f]	.	8B-	.	8G 8g	.	8gg	.
16e-)	.	.	.	.	.	.	.
[4f	.	8B-	.	8a-	.	8r	.
.	.	8B-	.	8a-	.	8b-	.
(16f]	.	8B-	.	8d 8f	.	8aa-	.
16d)	.	.	.	.	.	.	.
=369	=369	=369	=369	=369	=369	=369	=369
[4d	p	8E- 8B-	p	8A- 8f	p	8r	.
.	.	8E- 8B-	.	8A- 8f	.	8b-	p
(16d]	.	8E- 8B-	.	8A- 8f	.	8aa-	.
16f)	.	.	.	.	.	.	.
(8f	.	8E- 8B-	.	8A- 8f	.	8r	.
8.a-)	.	8E- 8B-	.	8A- 8f	.	8ff	.
.	.	8E- 8B-	.	8A- 8f	.	8bb-	.
16d	.	.	.	.	.	.	.
(8f	.	8E- 8B-	.	8G 8e-	.	8r	.
8e-	.	(8E-	.	(8G	.	8ee-	.
16d-	.	8F)	.	8A-)	.	8eee-	.
16c)	.	.	.	.	.	.	.
(8c	.	(8F	.	(8A-	.	8r	.
8B-	.	8G	.	8B-	.	8ee-	.
8A-)	.	8A-)	.	8c)	.	8eee-	.
*clefF4	*clefF4	*	*	*	*	*	*
=370	=370	=370	=370	=370	=370	=370	=370
8G	.	8E- 8d-	.	8B- 8e-	.	[4.b-	.
8EE-	.	8E- 8d-	.	8e- 8ee-	.	.	.
8EE-	.	8E- 8d-	.	8e- 8ee-	.	.	.
8GG	.	8E- 8d-	.	8e- 8ee-	.	4b-_	.
8BB-	.	8E- 8d-	.	8e- 8ee-	.	.	.
8D-	.	8E- 8d-	.	8e- 8ee-	.	(16b-]	.
.	.	.	.	.	.	16a-)	.
8E-	.	8E- 8d-	.	8e- 8ee-	.	[4a-	.
8G	.	8E- 8d-	.	8e- 8ee-	.	.	.
8B-	.	8E- 8d-	.	8e- 8ee-	.	(16a-]	.
.	.	.	.	.	.	16g)	.
8e-	.	8E- 8d-	.	8e- 8ee-	.	[4a-	.
8f	.	8E- 8d-	.	8e- 8ee-	.	.	.
8g	.	8E- 8d-	.	8e- 8ee-	.	(16a-]	.
.	.	.	.	.	.	16b-)	.
=371	=371	=371	=371	=371	=371	=371	=371
8A	.	8E- 8c	.	8e- 8ee-	.	(8b	.
8FF	.	8E- 8c	.	8e- 8ee-	.	[4cc)	.
8FF	.	8E- 8c	.	8e- 8ee-	.	.	.
8FF	.	8E- 8c	.	8e- 8ee-	.	4cc_	.
8AA	.	8E- 8c	.	8e- 8ee-	.	.	.
8C	.	8E- 8c	.	8e- 8ee-	.	(16cc]	.
.	.	.	.	.	.	16b)	.
8F	.	8E- 8c	.	8e- 8ee-	.	[4b-	.
8c	.	8E- 8c	.	8e- 8ee-	.	.	.
8f	.	8E- 8c	.	8e- 8ee-	.	(16b-]	.
.	.	.	.	.	.	16a)	.
8f	.	8E- 8c	.	8e- 8ee-	.	[4b-	.
8g	.	8E- 8c	.	8e- 8ee-	.	.	.
8a	.	8E- 8c	.	8e- 8ee-	.	(16b-]	.
.	.	.	.	.	.	16cc)	.
=372	=372	=372	=372	=372	=372	=372	=372
8a-	.	8F 8B-	.	8d 8dd	.	[4.dd	.
8BB-	.	8F 8B-	.	8A- 8d	.	.	.
8BB-	.	8F 8B-	.	8A- 8d	.	.	.
8F	.	8F 8B-	.	8A- 8d	.	4dd_	.
8A-	.	8F 8B-	.	8A- 8d	.	.	.
8B-	.	8F 8B-	.	8A- 8d	.	(16dd]	.
.	.	.	.	.	.	16ee-)	.
8d	.	8F 8B-	.	8A- 8d	.	[4ff	.
8e-	.	8F 8B-	.	8A- 8d	.	.	.
8f	.	8F 8B-	.	8A- 8d	.	(16ff]	.
.	.	.	.	.	.	16gg)	.
8f	.	8F 8B-	.	8A- 8d	.	[4aa-	.
8g	.	8E- 8B-	.	8A- 8e-	.	.	.
8a-	.	8D 8B-	.	8A- 8f	.	(16aa-]	.
.	.	.	.	.	.	16bb-)	.
=373	=373	=373	=373	=373	=373	=373	=373
8a-	p	8E- 8c	p	8A- 8e-	p	[4aa-	p
8E-	.	8E- 8A-	.	8c 8e-	.	.	.
8E-	.	8E- 8c	.	8A- 8e-	.	(16aa-]	.
.	.	.	.	.	.	16ee-)	.
8E-	.	8E- 8B-	.	8G 8e-	.	[4dd-	.
8EE-	.	8E- 8d-	.	8B- 8e-	.	.	.
8EE-	.	8E- 8B-	.	8G 8e-	.	(16dd-]	.
.	.	.	.	.	.	16b-)	.
8EE-	.	(8E- 8c	.	8A- 8e-	.	8a-	.
*clefC4	*clefC4	*	*	*	*	*	*
(8G	.	8B-	.	(8e-	.	8e-	.
8A-	.	8c)	.	8f	.	8ee-	.
8A	.	(8c 8e-	.	8f#	.	8r	.
8B-	.	8d-	.	8g	.	8ee-	.
8c)	.	8E-) 8c	.	8a-)	.	8eee-	.
=374	=374	=374	=374	=374	=374	=374	=374
(8A	.	8E- 8c	.	(8f#	.	8ee-	.
[4B-)	.	[4E- [4d-	.	[4g)	.	8e-	.
.	.	.	.	.	.	8e-	.
4B-_	.	4E-] 4d-]	.	4g_	.	8g	.
.	.	.	.	.	.	8b-	.
(16B-]	.	(16d-	.	(16g]	.	8dd-	.
16A-)	.	16c)	.	16f)	.	.	.
[4A-	.	[4c	.	[4f	.	8ee-	.
.	.	.	.	.	.	8gg	.
(16A-]	.	(16c]	.	(16f]	.	8bb-	.
16G)	.	16B-)	.	16e-)	.	.	.
[4A-	.	[4c	.	[4f	.	8ddd	.
.	.	.	.	.	.	8eee-	.
(16A-]	.	(16c]	.	(16f]	.	8eee-	.
16B-)	.	16d-)	.	16g)	.	.	.
=375	=375	=375	=375	=375	=375	=375	=375
(4B-	.	4d-	.	(4g	.	8ee-	.
.	.	.	.	.	.	8e-	.
[8c)	.	[8e-	.	[8a)	.	8e-	.
4c_	.	4e-_	.	4a_	.	8g-	.
.	.	.	.	.	.	8a	.
(16c]	.	(16e-]	.	(16a]	.	8cc	.
16B-)	.	16d-)	.	16g-)	.	.	.
[4B-	.	[4d-	.	[4g-	.	8ee-	.
.	.	.	.	.	.	8gg-	.
(16B-]	.	(16d-]	.	(16g-]	.	8ccc	.
16A)	.	16c)	.	16f)	.	.	.
[4B-	.	[4d-	.	[4g	.	8eee	.
.	.	.	.	.	.	8fff	.
(16B-]	.	(16d-]	.	(16g]	.	8ff	.
16c)	.	16e-)	.	16a)	.	.	.
=376	=376	=376	=376	=376	=376	=376	=376
[4.d	.	[4.f	.	[4.a- [4.b-	.	8ff	.
.	.	.	.	.	.	8B-	.
.	.	.	.	.	.	8B-	.
4d_	.	4f_	.	4a-_ 4b-_	.	8d	.
.	.	.	.	.	.	8f	.
(16d]	.	(16f]	.	(16a-] 16b-]	.	8a-	.
16e-)	.	16g)	.	16cc)	.	.	.
[4f	.	[4a-	.	[4dd	.	8b-	.
.	.	.	.	.	.	8dd	.
(16f]	.	(16a-]	.	(16dd]	.	8ff	.
16g)	.	16b-)	.	16ee-)	.	.	.
[4a-	.	[4dd	.	[4ff	.	8bb-	.
.	.	.	.	.	.	8fff	.
(16a-]	.	(16dd]	.	(16ff]	.	8eee-	.
16b-)	.	16dd-)	.	16gg)	.	.	.
=377	=377	=377	=377	=377	=377	=377	=377
(16b-	.	(16dd-	.	(16gg	.	8eee-	.
[8.a-	.	[8.cc	.	8.aa-	.	.	.
.	.	.	.	.	.	8e-	.
16a-]	.	16cc]	.	16ee-	.	8ee-	.
16e-)	.	16a-)	.	16cc)	.	.	.
([4d-	.	[4g	.	[4b-	.	8ee-	.
.	.	.	.	.	.	8e-	.
16d-]	.	(16g]	.	(16b-]	.	8gg	.
16B-)	.	16e-)	.	16g)	.	.	.
[4A-	.	(8e-	.	(8cc	.	8aa-	.
.	.	[8c)	.	[8a-)	.	8e-	.
16A-]	.	16c]	.	(16a-]	.	8ee-	.
16A	.	16c	.	16e-)	.	.	.
([4B-	.	([4d-	.	(4e-	.	8ee-	.
.	.	.	.	.	.	8e-	.
16B-]	.	16d-]	.	16dd-	.	8gg	.
16e-)	.	16g)	.	16b-)	.	.	.
=378	=378	=378	=378	=378	=378	=378	=378
[4e-	.	[4g-	.	[4cc	.	8aa-	.
.	.	.	.	.	.	8aa-	.
(16e-]	.	16g-]	.	(16cc]	.	8gg-	.
16A-)	.	16c	.	16b-)	.	.	.
[4d-	.	(8f	.	[4a-	.	8ff	.
.	.	8.f-	.	.	.	8aa-	.
(16d-]	.	.	.	(16a-]	.	8ff-	.
16A-)	.	16d-)	.	16f-)	.	.	.
[4c	.	[4e-	.	[4a-	.	8ee-	.
.	.	.	.	.	.	8aa-	.
(16c]	.	(16e-]	.	(16a-]	.	8ee-	.
16A-)	.	16c)	.	16e-)	.	.	.
[4E-	.	[4G	.	[4dd-	.	8ee-	.
.	.	.	.	.	.	8ddd-	.
(16E-]	.	(16G]	.	(16dd-]	.	8ee-	.
16G)	.	16d-)	.	16b-)	.	.	.
=379	=379	=379	=379	=379	=379	=379	=379
4A-	p	4c	p	4a-	p	8ee-	p
.	.	.	.	.	.	8ccc	.
8r	.	8r	.	8r	.	8ee-	.
4B-	.	4d-	.	4g 4ee-	.	8ee-	.
.	.	.	.	.	.	8ddd-	.
8r	.	8r	.	8r	.	8gg	.
4A-	.	4c	.	4a-	.	4aa-	.
8r	.	8r	.	8r	.	8r	.
4r	.	4r	.	4r	.	4bb-	.
8r	.	8r	.	8r	.	8r	.
=380	=380	=380	=380	=380	=380	=380	=380
4f	pp	4dd-	pp	8a-	.	4aa-	.
.	.	.	.	8dd-	.	.	.
8r	.	8r	.	8a-	.	8r	.
4g-	.	4ee-	.	8a-	.	4r	.
.	.	.	.	8aa-	.	.	.
8r	.	8r	.	8cc	.	8r	.
4f	.	4a-	.	4dd-	.	4r	.
8r	.	8r	.	8r	.	(8G	.
4r	.	4r	.	4r	.	4A-	.
8r	.	8r	.	8r	.	8c)	.
=381	=381	=381	=381	=381	=381	=381	=381
1.r	.	4r	.	1.r	.	[2.d-	.
.	.	(8E	.	.	.	.	.
.	.	4F	.	.	.	.	.
.	.	8A)	.	.	.	.	.
.	.	[2.B-	.	.	.	(4d-]	.
.	.	.	.	.	.	8f	.
.	.	.	.	.	.	4g-	.
.	.	.	.	.	.	8b-)	.
*clefF4	*clefF4	*	*	*	*	*	*
=382	=382	=382	=382	=382	=382	=382	=382
1.r	.	(4B-]	.	1.r	.	[2.a-	.
.	.	8B	.	.	.	.	.
.	.	4c	.	.	.	.	.
.	.	8e-	.	.	.	.	.
.	.	[2.g-)	.	.	.	(8a-]	.
.	.	.	.	.	.	8b	.
.	.	.	.	.	.	8cc	.
.	.	.	.	.	.	4b-	.
.	.	.	.	.	.	8a-)	.
=383	=383	=383	=383	=383	=383	=383	=383
4r	.	4g-]	.	4r	.	[4.dd-	.
8r	.	(8e	.	8r	.	.	.
4FF	.	[4.f)	.	4d-	.	(4dd-]	.
8r	.	.	.	8r	.	8a)	.
4r	.	4f]	.	4r	.	[4.b-	.
8r	.	(8d	.	8r	.	.	.
4GG-	.	[4.e-)	.	4B-	.	(4b-]	.
8r	.	.	.	8r	.	8g-)	.
=384	=384	=384	=384	=384	=384	=384	=384
4r	.	(4e-]	.	4r	.	[4.f	.
8r	.	8d-	.	8r	.	.	.
4AA-	.	[4.c)	.	4A-	.	(4f]	.
8r	.	.	.	8r	.	8e-	.
4r	.	(4c]	.	4r	.	4.d-	.
8r	.	8B-	.	(8f##	.	.	.
4r	.	4A-	.	4g#	.	4c)	.
(8CC	.	8C)	.	8b#)	.	8r	.
=385	=385	=385	=385	=385	=385	=385	=385
*k[f#c#g#d#]	*k[f#c#g#d#]	*k[f#c#g#d#]	*k[f#c#g#d#]	*k[f#c#g#d#]	*k[f#c#g#d#]	*k[f#c#g#d#]	*k[f#c#g#d#]
[2.CC#)	.	[2.C#	.	[2.cc#	.	4r	.
.	.	.	.	.	.	(8ff##	.
.	.	.	.	.	.	4gg#	.
.	.	.	.	.	.	8bb#)	.
4CC#]	.	4C#]	.	4cc#]	.	[2.ccc#	.
(8C#	.	(8e	.	(8ee	.	.	.
4BB	.	4g#	.	4gg#	.	.	.
8D#	.	8B	.	8b	.	.	.
=386	=386	=386	=386	=386	=386	=386	=386
4F#	.	4A	.	4a	.	(1.ccc#]	.
8AA	.	8c#	.	8cc#	.	.	.
4GG#	.	4e	.	4ee	.	.	.
8BB	.	8G#	.	8g#	.	.	.
4D#	.	4F#	.	4f#	.	.	.
8FF#	.	8A	.	8a	.	.	.
4EE	.	4c#	.	4cc#	.	.	.
8C#)	.	8E)	.	8e)	.	.	.
=387	=387	=387	=387	=387	=387	=387	=387
(4DD#	p	(4c#	p	(4cc#	p	4.ff#)	p
8C#	.	8D#	.	8d#	.	.	.
4DD#	.	4B#	.	4b#	.	4.gg#	.
8BB#)	.	8D#)	.	8d#)	.	.	.
[2.CC#	.	4C#	.	4e 4cc#	.	4ee	.
.	.	(8e	.	8r	.	8cc#	.
.	.	4g#	.	4r	.	4b	.
.	.	8B	.	8r	.	8dd#	.
=388	=388	=388	=388	=388	=388	=388	=388
2.CC#_	.	4A	.	1.r	.	4ff#	.
.	.	8c#	.	.	.	8a	.
.	.	4e	.	.	.	4g#	.
.	.	8G#	.	.	.	8b	.
2.CC#]	.	4F#	.	.	.	4dd#	.
.	.	8A	.	.	.	8f#	.
.	.	4c#	.	.	.	4e	.
.	.	8E)	.	.	.	&(8cc#&)	.
=389	=389	=389	=389	=389	=389	=389	=389
4.FF#	p	(4c#	p	2.r	.	(4d#	p
.	.	8D#	.	.	.	8cc#	.
[4.GG#	.	4B#	.	.	.	4d#	.
.	.	8D#)	.	.	.	8b#)	.
(4GG#]	.	[4.E	.	([4.c#	p	4cc#	.
8FF##	.	.	.	.	.	8r	.
4GG#	.	(4E]	.	4c#]	.	4r	.
8BB#)	.	8F#)	.	8d#	.	8r	.
=390	=390	=390	=390	=390	=390	=390	=390
1.C#	.	4E	.	4e	.	[4.cc#	.
.	.	[8e	.	8f##	.	.	.
.	.	(4e]	.	4g#	.	(4cc#]	.
.	.	8f#)	.	8b#)	.	8dd#	.
.	.	2.e	.	2.cc#	.	4ee	.
.	.	.	.	.	.	8ff#	.
.	.	.	.	.	.	4gg#	.
.	.	.	.	.	.	8aa)	.
=391	=391	=391	=391	=391	=391	=391	=391
[4.AA	.	4A	.	4e 4cc#	.	4aa	.
.	.	(8A	.	(8c#	.	(8cc#	.
(4AA]	.	4A)	.	4c#)	.	4cc#)	.
8GG#	.	8G#	.	8d	.	8dd	.
4FF#	.	4F#	.	4e	.	4ee	.
8EE	.	8E	.	8f#	.	8ff#	.
4DD	.	4D	.	4g#	.	4gg#	.
8CC#)	.	&(8C#&)	.	&(8a&)	.	&(8aa&)	.
=392	=392	=392	=392	=392	=392	=392	=392
*k[b-e-a-d-]	*k[b-e-a-d-]	*k[b-e-a-d-]	*k[b-e-a-d-]	*k[b-e-a-d-]	*k[b-e-a-d-]	*k[b-e-a-d-]	*k[b-e-a-d-]
[2.EE-	p	(4E-	p	(8g	.	(8gg	.
.	.	.	.	8a-	.	8aa-	.
.	.	8A-	.	8c	.	8ee-	.
.	.	4F	.	8c-	.	8dd	.
.	.	.	.	8A-	.	8dd-	.
.	.	8G)	.	8B-)	.	8b-)	.
2.EE-]	.	(8g	.	(8B-	.	[2.ee-	.
.	.	8a-	.	8c	.	.	.
.	.	8e-	.	8cc	.	.	.
.	.	8d	.	8f	.	.	.
.	.	8d-	.	8b-	.	.	.
.	.	8B-)	.	8g)	.	.	.
=393	=393	=393	=393	=393	=393	=393	=393
(8G	.	(8B	.	(8e-	.	4ee-]	.
8A-	.	8c	.	8c	.	.	.
8E-	.	8C	.	8cc	.	8aa-	.
8D	.	8F	.	8ff	.	4.bb-	.
8D-	.	8B-	.	8b-	.	.	.
8BB-	.	8G	.	8dd-)	.	.	.
8GG	.	8B-	.	(8dd-	.	4ddd-	.
8FF	.	8A-	.	8bb-)	.	.	.
[8EE-)	.	8G	.	8bb-	.	8ddd	.
8EE-]	.	8G	.	(16bb-	.	(4eee-	.
.	.	.	.	16b-	.	.	.
(8E-	.	8d-	.	8ff	.	.	.
8e-)	.	16c	.	16ee-	.	16fff	.
.	.	16B-)	.	16dd-)	.	16ggg)	.
=394	=394	=394	=394	=394	=394	=394	=394
4r	.	4.E-	p	8cc	p	16aaa-	.
.	.	.	.	.	.	(16dd	.
.	.	.	.	[4c	.	16ee-	.
.	.	.	.	.	.	16dd	.
[8AA-	p	.	.	.	.	16ee-	.
.	.	.	.	.	.	16gg	.
4AA-]	.	4.E-	.	8c]	.	16aa-	.
.	.	.	.	.	.	16bb-	.
.	.	.	.	[4c	.	16aa-	.
.	.	.	.	.	.	16gg	.
[8AA-	.	.	.	.	.	16aa-	.
.	.	.	.	.	.	16bb-)	.
4AA-]	.	4.E-	.	8c]	.	(16ccc	.
.	.	.	.	.	.	16ddd-	.
.	.	.	.	[4c	.	16ccc	.
.	.	.	.	.	.	16bb	.
[8AA-	.	.	.	.	.	16ccc	.
.	.	.	.	.	.	16ddd-	.
4AA-]	.	4.E-	.	8c]	.	16ddd	.
.	.	.	.	.	.	16eee-	.
.	.	.	.	[4c	.	16fff	.
.	.	.	.	.	.	16eee-	.
(8AA	.	.	.	.	.	16ff	.
.	.	.	.	.	.	16fff)	.
=395	=395	=395	=395	=395	=395	=395	=395
4BB-)	.	4.E-	.	8c]	.	(16fff	.
.	.	.	.	.	.	16eee-	.
.	.	.	.	[4d-	.	16ddd-	.
.	.	.	.	.	.	16ccc	.
[8BB-	.	.	.	.	.	16eee-	.
.	.	.	.	.	.	16ddd-	.
4BB-]	.	4.E-	.	8d-]	.	16ccc	.
.	.	.	.	.	.	16bb-	.
.	.	.	.	[4d-	.	16aa	.
.	.	.	.	.	.	16bb-	.
[8BB-	.	.	.	.	.	16ddd-	.
.	.	.	.	.	.	16bb-	.
4BB-]	.	4.E-	.	8d-]	.	16aa-	.
.	.	.	.	.	.	16gg	.
.	.	.	.	[4d-	.	16ff#	.
.	.	.	.	.	.	16gg	.
[8BB-	.	.	.	.	.	16bb-	.
.	.	.	.	.	.	16gg	.
4BB-]	.	4.E-	.	8d-]	.	16ff	.
.	.	.	.	.	.	16ee-	.
.	.	.	.	(4d-	.	16dd	.
.	.	.	.	.	.	16ee-	.
(8BB-	.	.	.	.	.	16ff	.
.	.	.	.	.	.	16gg)	.
=396	=396	=396	=396	=396	=396	=396	=396
4C)	.	4.E-	.	8e-)	.	(16bb-	.
.	.	.	.	.	.	16gg	.
.	.	.	.	[4A-	.	16bb-	.
.	.	.	.	.	.	16aa-	.
8C	.	.	.	.	.	16ccc	.
.	.	.	.	.	.	16aa-	.
4D-	.	4.F	.	8A-]	.	16gg	.
.	.	.	.	.	.	16ee	.
.	.	.	.	4A- 4a-	.	16gg	.
.	.	.	.	.	.	16ff	.
8D-	.	.	.	.	.	16aa-	.
.	.	.	.	.	.	16ff)	.
4E-	.	4.G	.	8g	.	(16ee-	.
.	.	.	.	.	.	16cc	.
.	.	.	.	4B- 4g	.	16ee-	.
.	.	.	.	.	.	16dd-	.
[8E-	.	.	.	.	.	16ff	.
.	.	.	.	.	.	16dd-)	.
4E-]	.	4.A-	.	8c	.	(16dd-	.
.	.	.	.	.	.	16b	.
.	.	.	.	[4c [4a-	.	16dd-	.
.	.	.	.	.	.	16cc	.
[8E-	.	.	.	.	.	16ee-	.
.	.	.	.	.	.	16cc)	.
=397	=397	=397	=397	=397	=397	=397	=397
4E-]	.	4.A-	.	8c] 8a-]	.	(16aa-	.
.	.	.	.	.	.	16ee-	.
.	.	.	.	[4c [4a-	.	16ccc	.
.	.	.	.	.	.	16aa-	.
[8E-	.	.	.	.	.	16eee-	.
.	.	.	.	.	.	16ccc	.
4E-]	.	4.A-	.	8c] 8a-]	.	16aaa-	.
.	.	.	.	.	.	16ggg	.
.	.	.	.	4c 4a-	.	16fff	.
.	.	.	.	.	.	16eee-	.
[8E-	.	.	.	.	.	16ddd-	.
.	.	.	.	.	.	16ccc)	.
4E-]	p	[4.G	p	8b-	p	(16bb-	p
.	.	.	.	.	.	16aa	.
.	.	.	.	[4B- [4e-	.	16aa-	.
.	.	.	.	.	.	16gg	.
[8E-	.	.	.	.	.	16ff	.
.	.	.	.	.	.	16ee-	.
(16E-]	.	(16G]	.	8.B-] 8.e-]	.	16dd-	.
16F	.	16A-	.	.	.	16cc	.
16G	.	16B-	.	.	.	16b-	.
16A-	.	16c	.	(16f	.	16a-	.
16B-	.	16d-	.	16g	.	16g	.
16A-)	.	16c)	.	16a-)	.	16f)	.
=398	=398	=398	=398	=398	=398	=398	=398
(16G	.	(16B-	.	(16b-	.	[2.e-	.
16F	.	16A-	.	16cc	.	.	.
16E-	.	16G	.	16dd-	.	.	.
16F	.	16A-	.	16cc	.	.	.
16G	.	16B-	.	16b-	.	.	.
16A-	.	16c	.	16a-	.	.	.
16B-	.	16d-	.	16g	.	.	.
16A-	.	16c	.	16a-	.	.	.
16G	.	16B-	.	16b-	.	.	.
16A-	.	16c	.	16a-	.	.	.
16B-	.	16d-	.	16g	.	.	.
16c	.	16e-	.	16f	.	.	.
16d-	.	16f	.	16e-	.	8e-]	.
16c	.	16e-	.	16f	.	.	.
16B-	.	16d-	.	16g	.	[4ee-	.
16A-	.	16c	.	16a-	.	.	.
16G	.	16B-	.	16b-	.	.	.
16F	.	16A-	.	16cc	.	.	.
16E-	.	16G	.	16dd-	.	8ee-]	.
16D-	.	16F	.	16ee-	.	.	.
16C	.	16E-	.	16ff	.	4eee-	.
16BB-	.	16D-	.	16gg	.	.	.
16AA-	.	16C	.	16aa-	.	.	.
16GG	.	16D-)	.	16bb-)	.	.	.
=399	=399	=399	=399	=399	=399	=399	=399
16AA-)	.	(16C	.	(16ccc	.	[2.e-	.
(16B-	.	16E-	.	16dd-	.	.	.
16A-	.	16c	.	16ee-	.	.	.
16B-	.	16B-	.	16dd-	.	.	.
16c	.	16A-	.	16cc	.	.	.
16B-	.	16B-	.	16dd-	.	.	.
16A-	.	16c	.	16cc	.	.	.
16BB-	.	16G	.	16dd-	.	.	.
16C	.	16A-	.	16ee-	.	.	.
16D-	.	16B-	.	16dd-	.	.	.
16E-	.	16c	.	16cc	.	.	.
16G	.	16d-	.	16b-)	.	.	.
16A-	.	16c	.	(16b-	.	8e-]	.
16c	.	16e-	.	16a-	.	.	.
16B-	.	16d-	.	16b-	.	[4ee-	.
16A-	.	16c	.	16cc	.	.	.
16G	.	16B-	.	16dd-	.	.	.
16F	.	16A-	.	16ee-	.	.	.
16E-	.	16G	.	16ff	.	8ee-]	.
16D-	.	16F	.	16gg	.	.	.
16C	.	16E-	.	16aa-	.	8.eee-	.
16BB-	.	16D-	.	16bb-	.	.	.
16AA-	.	16E-	.	16ccc-	.	.	.
16GG-)	.	16e-)	.	16ccc)	.	16aa-	.
=400	=400	=400	=400	=400	=400	=400	=400
(16FF	f	(16A-	f	16ddd-	f	[2.a-	f
16GG-	.	16C	.	(16a-	.	.	.
16FF	.	16D-	.	16b-	.	.	.
16EE-	.	16E-	.	16cc	.	.	.
16DD-	.	16F	.	16dd-	.	.	.
16EE-	.	16G-	.	16cc	.	.	.
16FF)	.	16A-	.	16dd-	.	.	.
*clefC4	*clefC4	*	*	*	*	*	*
(16e-	.	16G-	.	16cc	.	.	.
16d-	.	16F	.	16dd-	.	.	.
16e-	.	16G-	.	16cc	.	.	.
16d-	.	16F	.	16dd-)	.	.	.
16c	.	16E-)	p	16ee-	.	.	.
16d-	p	16D-	.	(16ff	p	8a-]	p
16g-	.	(16cc	.	16ee-	.	.	.
16f	.	16dd-	.	16ff	.	[4aa-	.
16g-	.	16cc	.	16ee-	.	.	.
16f	.	16dd-	.	16ff	.	.	.
16e-	.	16g-	.	16gg-	.	.	.
16d-	.	16f	.	16aa-	.	8aa-]	.
*clefF4	*clefF4	*	*	*	*	*	*
16D-)	.	16e	.	16gg	.	.	.
(16D-	.	16f	.	16aa-	.	[4aaa-	.
16E-	.	16e-	.	16gg	.	.	.
16F	.	16d-	.	16aa-	.	.	.
16F-)	.	16d)	.	16bb-)	.	.	.
=401	=401	=401	=401	=401	=401	=401	=401
(16E-	.	(16c	.	(16a-	.	8aaa-]	.
16F	.	16d-	.	16gg	.	.	.
16D-	.	16c	.	16aa-	.	[4eee-	.
16c	.	16a-	.	16ee-	.	.	.
16B	.	16g	.	16ff	.	.	.
16c	.	16a-	.	16ee-	.	.	.
16E-	.	16G	.	16dd-	.	8eee-]	.
16F	.	16A-	.	16cc	.	.	.
16E-	.	16G	.	16dd-	.	[4eee-	.
16d-	.	16g	.	16b-	.	.	.
16c	.	16f#)	.	16a	.	.	.
16d-)	.	16g	.	16b-)	.	.	.
(16c	.	(16e-	.	(16a-	.	16eee-]	.
16B	.	16d	.	16g	.	(16gg	.
16c	.	16e-	.	16a-	.	16aa-	.
16A-	.	16c	.	16e-	.	16ee-	.
16G	.	16d-	.	16f	.	16ff	.
16A-	.	16c	.	16e-	.	16ee-	.
16E-	.	16G	.	16d-	.	16dd-	.
16F	.	16A-	.	16c	.	16cc	.
16E-	.	16G)	.	16d-	.	16dd-	.
16D-	.	(16G	.	16B-	.	16bb-	.
16C	.	16E-	.	16A	.	16ccc	.
16D-)	.	16G)	.	16B-)	.	16bb-)	.
=402	=402	=402	=402	=402	=402	=402	=402
[4C	.	(8.E-	.	([4e-	.	(16eee-	.
.	.	.	.	.	.	16aa-	.
.	.	.	.	.	.	8.aa	.
.	.	16G-	.	.	.	.	.
(16C]	.	8F	.	16e-]	.	.	.
16FF)	.	.	.	16cc)	.	16eee-	.
[4BB-	.	8.B-	.	(16f	.	16ddd-	.
.	.	.	.	16f-	.	16aa-	.
.	.	.	.	16e-	.	8.gg	.
.	.	16F-	.	8d-	.	.	.
(16BB-]	.	8E-)	.	.	.	.	.
16EE-)	.	.	.	16b-)	.	16ddd-)	.
[4AA-	.	(8.E-	.	(16a-	.	(16ccc	.
.	.	.	.	16d-	.	16ff	.
.	.	.	.	8.c	.	8.ee-	.
.	.	16F	.	.	.	.	.
(16AA-]	.	8E-)	.	.	.	.	.
16EE-)	.	.	.	16a-)	.	16ccc	.
[4D-	.	(8.E-	.	(8g	.	16bb-	.
.	.	.	.	.	.	16ff-	.
.	.	.	.	8.G)	.	8.ee-	.
.	.	16F)	.	.	.	.	.
(16D-]	.	8E-	.	.	.	.	.
16EE-)	.	.	.	16dd-	.	16bb-)	.
=403	=403	=403	=403	=403	=403	=403	=403
1.r	.	2.r	.	2.r	.	1.r	.
.	.	8E-	pp	8e-	pp	.	.
.	.	8E-	.	8e-	.	.	.
.	.	8E-	.	8e-	.	.	.
.	.	8E-	.	8e-	.	.	.
.	.	8E-	.	8e-	.	.	.
.	.	8E-	.	8e-	.	.	.
=404	=404	=404	=404	=404	=404	=404	=404
4AA-	pp	8E-	.	8e-	.	[2.g-	pp
.	.	8E-	.	8e-	.	.	.
8r	.	8E-	.	8e-	.	.	.
4BB--	.	8E-	.	8e-	.	.	.
.	.	8E-	.	8e-	.	.	.
8r	.	8E-	.	8e-	.	.	.
4AA-	.	8E-	.	8e-	.	8g-]	.
.	.	8C	.	8e-	.	8gg-	.
8r	.	8C	.	8e-	.	8gg-	.
4r	.	8C	.	8e-	.	8ccc	.
.	.	8C	.	8e-	.	8eee-	.
8r	.	8C	.	8e-	.	8ggg-	.
=405	=405	=405	=405	=405	=405	=405	=405
4AA-	.	8D-	.	8f	.	[2.fff	.
.	.	8D-	.	8f	.	.	.
8r	.	8D-	.	8f	.	.	.
4BB-	.	8D-	.	8f	.	.	.
.	.	8D-	.	8f	.	.	.
8r	.	8D-	.	8f	.	.	.
4AA-	.	8D-	.	8f	.	8fff]	.
.	.	8D-	.	8f	.	8ff	.
8r	.	8D-	.	8f	.	8aa-	.
4r	.	8D-	.	8f	.	8ddd-	.
.	.	8D-	.	8f	.	8eee-	.
8r	.	8D-	.	8f	.	8fff	.
=406	=406	=406	=406	=406	=406	=406	=406
4AA-	.	8D-	.	8f-	.	[4ggg	.
.	.	8D-	.	8f-	.	.	.
8r	.	(16D-	.	(16f-	.	(16ggg]	.
.	.	16C)	.	16e-)	.	16aaa-)	.
4DD- 4BB-	.	8D-	.	(8f	.	[4aaa-	.
.	.	8f	.	8dd-)	.	.	.
8r	.	(16f	.	8dd-	.	(16aaa-]	.
.	.	16g)	.	.	.	16fff)	.
4EE- 4C	.	(16g	.	8dd-	.	[4fff	.
.	.	16a-)	.	.	.	.	.
.	.	8a-	.	(16dd-	.	.	.
.	.	.	.	16cc)	.	.	.
8r	.	8a-	.	8cc	.	(16fff]	.
.	.	.	.	.	.	16eee-)	.
4EE-	.	(16a	.	8cc	.	[4eee-	.
.	.	16b-)	.	.	.	.	.
.	.	8b-	.	(16cc	.	.	.
.	.	.	.	16dd-)	.	.	.
8r	.	8B-	.	8d-	.	(16eee-]	.
.	.	.	.	.	.	16gg)	.
=407	=407	=407	=407	=407	=407	=407	=407
4FF-	p	4A-	p	4d-	p	4aa-	p
8r	.	8r	.	8r	.	8r	.
4FF-	.	4A-	.	4d-	.	4bb-	.
8r	.	8r	.	8r	.	8r	.
4FF-	.	4A-	.	2.g#	pp	4aa-	.
8r	.	8r	.	.	.	8r	.
4.r	.	4r	.	.	.	4r	.
.	.	8r	.	.	.	8r	.
=408	=408	=408	=408	=408	=408	=408	=408
4E	pp	4B 4e	pp	4g#	.	2.r	.
8r	.	8r	.	8r	.	.	.
4D#	.	4B 4f#	.	4a	.	.	.
8r	.	8r	.	8r	.	.	.
4E	.	4E	.	4g#	.	[2.aa-	.
8r	.	8r	.	8r	.	.	.
4r	.	4r	.	4r	.	.	.
8r	.	8r	.	8r	.	.	.
=409	=409	=409	=409	=409	=409	=409	=409
4E-	p	4c	p	4a-	p	4aa-]	p
8r	.	8r	.	8r	.	(16ee-	.
.	.	.	.	.	.	16ee)	.
4E-	.	4d-	.	4g 4b-	.	(16ee	.
.	.	.	.	.	.	16ff	.
.	.	.	.	.	.	16cc	.
.	.	.	.	.	.	16dd-	.
8r	.	8r	.	8r	.	16f	.
.	.	.	.	.	.	16g)	.
8E-	.	4E- 4c	.	4a-	.	(16b-	.
.	.	.	.	.	.	16g	.
8r	.	.	.	.	.	16b-	.
.	.	.	.	.	.	16a-)	.
(16e-	.	8r	.	8r	.	(16c-	.
16e)	.	.	.	.	.	16c)	.
(16e	.	4E- 4d-	.	4g 4b-	.	(16c	.
16f	.	.	.	.	.	16d-	.
16c	.	.	.	.	.	16A	.
16d-	.	.	.	.	.	16B-)	.
16F	.	8r	.	8r	.	[8d-	.
16G)	.	.	.	.	.	.	.
=410	=410	=410	=410	=410	=410	=410	=410
(16B-	.	8r	.	8r	.	(8.d-]	.
16G	.	.	.	.	.	.	.
16B-	.	8r	.	(16g	.	.	.
16A-)	.	.	.	16a-)	.	16c)	.
(16E-	.	(16e-	.	(16a-	.	(16cc-	.
16E)	.	16e)	.	16g)	.	16cc)	.
(16E	.	(16c	.	(16g	.	(16cc	.
16F	.	16A-	.	16f	.	16dd-	.
16C	.	16c	.	16e-	.	16a	.
16D-	.	16F	.	16d-)	.	16b-)	.
16FF	.	16A-	.	(16f	.	[8dd-	.
16GG)	.	[16B-)	.	16f-)	.	.	.
(16BB-	.	(16B-]	.	4e-	.	(8.dd-]	.
16GG	.	16d-	.	.	.	.	.
16BB-	.	16B-	.	.	.	.	.
16AA-)	.	16c)	.	.	.	16cc)	.
(16FF	.	(16F	.	16A-	.	[8dd-	.
16GG	.	16F-	.	[16B-	.	.	.
16BB-	.	4E-)	.	16B-]	.	(8.dd-]	.
16GG	.	.	.	(16d-	.	.	.
16BB-	.	.	.	16B-	.	.	.
16AA-)	.	.	.	16c)	.	16cc)	.
(16FF	.	(16c	.	(16a-	.	[8ee-	.
16GG)	.	16B-)	.	16b-	.	.	.
=411	=411	=411	=411	=411	=411	=411	=411
4BB-	.	4E- 4d-	.	4g)	.	4ee-]	.
8BB-	.	8E- 8d-	.	8g	.	8ee-	.
8BB-	.	8E- 8d-	.	8g	.	(8ee-	.
8BB-	.	8E- 8d-	.	8e- 8ee-	.	8ff	.
8BB-	.	8E- 8d-	.	8e- 8ee-	.	8gg)	.
8.BB-	p	8.E- 8.d-	p	8.e- 8.ee-	p	(8.gg	p
8.AA-	pp	8.E- 8.c	pp	8.e- 8.ee-	pp	8.aa-)	pp
4.r	.	4.r	.	4.r	.	4.r	.
==	==	==	==	==	==	==	==
*-	*-	*-	*-	*-	*-	*-	*-
!!!ENC: Craig Stuart Sapp
!!!END: 2004/09/06/
!!!RWG: No grace notes; no articulations
